!!!!SEGMENT: pl-gd--ms-joh-406--002_rozycki-jacek--dixit-dominus.krn
!!!cenid: 16xx:1752
!!!COM: Różycki, Jacek
!!!COM-rismID: pe30020620
!!!CDT: ~1635-~1703
!!!CNT: Polish
!!!OTL: Dixit Dominus
!!!PDT: 1688
!!!AGN:
!!!SMS-siglum: PL-GD
!!!SMS-shelfmark: Ms Joh.406
!!!SMS-variant: Sop: Rip: O Cornetto 1, zdj. 83; Bassus pro Directore, zdj. 9293
!!!SMS-altvar: Soprano Ripieni zdj. 88; Bassus pro Directore, zdj. 9394
!!!SMS-shelfwork: 002 W
!!!NIFC-rismSourceID: 305000447
!!!NIFC-rismChildID: 305000452
!!!NIFC-islandoraID: pl-gd:36565
!!!URL-pdf-islandora: https://repozytorium.nifc.pl/islandora/object/pl-gd:36565/datastream/PDF/view
!!!URL-scan: https://polish.musicsources.pl/pl/lokalizacje/galeria/rekopisy/5611 @EN{Scan on Polish Music Sources Website} @PL{Skany w portalu Dziedzictwo Muzyki Polskiej w otwartym dostępie}
!!!ONB-nifc: UWAGA: Soprano - 78 (lewa), Violetta 1 - 79 (lewa), Alto - 80 (lewa), Tenore - 81 (lewa), Basso - 82 (lewa), Sop: Rip: O Cornetto 1 - 83 (lewa), Violetta 2 - 84 (lewa), Alto Ripien: - 85 (lewa), Tenore Rip. - 86 (lewa), Bas: Rip: Fagotto - 87 (lewa), Soprano Ripieni - 88 (lewa), Violino 1 - 89 (lewa), Violino 2 - 90 (lewa), Cornettino 1mo ad Placitum - 91 (lewa), Cornettino 2do ad placitum - 92 (lewa), Bassus pro Directore (x2) - 9293 i 9394
!!!AIN: 2 alto 2 bass 2 corno 1 organ 2 soprn 2 tenor 2 viole 2 violn
!!!key: a
**kern	**kern	**kern	**kern	**kern	**kern	**text	**kern	**text	**kern	**text	**kern	**text	**kern	**text	**kern	**text	**kern	**text	**kern	**text	**kern	**kern
*part15	*part14	*part13	*part12	*part11	*part10	*part10	*part9	*part9	*part8	*part8	*part7	*part7	*part6	*part6	*part5	*part5	*part4	*part4	*part3	*part3	*part2	*part1
*staff15	*staff14	*staff13	*staff12	*staff11	*staff10	*staff10	*staff9	*staff9	*staff8	*staff8	*staff7	*staff7	*staff6	*staff6	*staff5	*staff5	*staff4	*staff4	*staff3	*staff3	*staff2	*staff1
*I"Basſus pro Directore.	*I"Violetta. 2	*I"Violetta 1	*I"Violino. 2.	*I"Violino 1.	*I"Bas: Rip: Fagotto.	*	*I"Tenore Rip.	*	*I"Alto Ripien:	*	*I"Sop: Rip: Ò Cornetto. 1.	*	*I"Baſso	*	*I"Tenore	*	*I"Alto.	*	*I"Soprano.	*	*I"Cornettino 2do ad placitum	*I"Cornettino. 1mo ad Placitum.
*I'B. pro dir.	*I'Vla 2	*I'Vla 1	*I'Vl II	*I'Vl I	*I'B rip.	*	*I'T rip.	*	*I'A rip.	*	*I'S rip.	*	*I'B.	*	*I'T.	*	*I'A.	*	*I'S.	*	*I'Kornettino 2	*I'Kornettino 1
*ICklav	*ICstr	*ICstr	*ICstr	*ICstr	*ICvox	*	*ICvox	*	*ICvox	*	*ICvox	*	*ICvox	*	*ICvox	*	*ICvox	*	*ICvox	*	*ICbras	*ICbras
*Iorgan	*Iviole	*Iviole	*Ivioln	*Ivioln	*Ibass	*	*Itenor	*	*Ialto	*	*Isoprn	*	*Ibass	*	*Itenor	*	*Ialto	*	*Isoprn	*	*Icorno	*Icorno
*IGcont	*IGsolo	*IGsolo	*IGsolo	*IGsolo	*IGripn	*	*IGripn	*	*IGripn	*	*IGripn	*	*IGcoro	*	*IGcoro	*	*IGcoro	*	*IGcoro	*	*IGsolo	*IGsolo
*clefC4	*clefC3	*clefC1	*clefG2	*clefG2	*clefF4	*	*clefC4	*	*clefC3	*	*clefC1	*	*clefF4	*	*clefC4	*	*clefC3	*	*clefC1	*	*clefG2	*clefG2
*k[]	*k[]	*k[]	*k[]	*k[]	*k[]	*	*k[]	*	*k[]	*	*k[]	*	*k[]	*	*k[]	*	*k[]	*	*k[]	*	*k[]	*k[]
*a:	*a:	*a:	*a:	*a:	*a:	*	*a:	*	*a:	*	*a:	*	*a:	*	*a:	*	*a:	*	*a:	*	*a:	*a:
*M3/2	*M3/2	*M3/2	*M3/2	*M3/2	*M3/2	*	*M3/2	*	*M3/2	*	*M3/2	*	*M3/2	*	*M3/2	*	*M3/2	*	*M3/2	*	*M3/2	*M3/2
=1	=1	=1	=1	=1	=1	=1	=1	=1	=1	=1	=1	=1	=1	=1	=1	=1	=1	=1	=1	=1	=1	=1
*2\right	*2\right	*2\right	*2\right	*2\right	*2\right	*	*2\right	*	*2\right	*	*2\right	*	*2\right	*	*2\right	*	*2\right	*	*2\right	*	*2\right	*2\right
!	!LO:TX:b:i:t=Dixit.	!LO:TX:b:i:t=Dixit Dominus.	!	!	!	!	!	!	!	!	!LO:TX:t=P:problem:przed metrum 3/2 jeszcze znak menzury O	!	!	!	!	!	!	!	!	!	!	!
!	!LO:TX:t=P:problem:przed metrum 3/2 jeszcze znak menzury O	!LO:TX:t=P:problem:przed metrum 3/2 jeszcze znak menzury O	!LO:TX:a:t=A 4 Voci è 5 Strom&colon; Con 4 Ripieni. H R.	!LO:TX:a:t=A 4 Voci è 5 Strom&colon; Con 4 Ripieni. H R.	!LO:TX:a:t=A 4 Voci è 5 Strom&colon; Con 4 Ripieni. H R.	!	!LO:TX:a:t=A 4 Voci è 5 Strom&colon; Con 4 Rip&colon; H. R.	!	!LO:TX:a:t=A 4 Voci è 5 Strom&colon; Con 4 Ripieni. H R.	!	!LO:TX:a:t=A 4 Voci. 2 Violi 4 Ripien&colon; H R.	!	!LO:TX:a:t=A 4 Voci è 5 Strom&colon; Con 4 Ripieni. H R.	!	!	!	!LO:TX:t=P:problem:przed metrum 3/2 jeszcze znak menzury O	!	!LO:TX:t=P:problem:przed metrum 3/2 jeszcze znak menzury O	!	!	!
!	!LO:TX:a:t=11	!LO:TX:a:t=11	!LO:TX:b:i:t=Dixit Dominus.	!LO:TX:b:i:t=Dixit Dominus.	!LO:TX:b:i:t=Dixit&colon;	!	!LO:TX:b:i:t=Dixit&colon;	!	!LO:TX:b:i:t=Dixit&colon;	!	!LO:TX:b:i:t=Dixit&colon;	!	!LO:TX:b:i:t=Dixit&colon;	!	!LO:TX:a:t=A 4 Voci è 5 Strom&colon; Con 4 Rip&colon; H. R.	!	!LO:TX:a:t=A 4 Voci è 5 Stromenti Con 4 Ripieni. H. R.	!	!LO:TX:b:t=a3	!	!LO:TX:b:i:t=Dixit Domin(us)	!LO:TX:b:i:t=Dixit Domin(us)
!LO:TX:b:i:t=Dixit Domin(us)	!LO:TX:a:t=A 4 Voci 5 Violini e 4. Ripieni. H. R.	!LO:TX:a:t=A  4 Voci è 5 Stromenti, Con 4 Ripieni. H. R.	!LO:TX:a:t=10	!LO:TX:a:t=10	!LO:TX:a:t=17	!	!LO:TX:a:t=17	!	!LO:TX:a:t=17	!	!LO:TX:a:t=17	!	!LO:TX:a:t=10	!	!LO:TX:b:t=a3	!	!LO:TX:a:t=a3	!	!LO:TX:a:t=A 4 Voci è 5 Strom&colon; Con 4 Ripieni. H R.	!	!LO:TX:a:t=10	!LO:TX:a:t=10
!LO:TX:t=P:problem:kreski taktowe w większości pokrywają się z pseudotaktowymi	!LO:TX:t=P:problem:kreski taktowe w większości pokrywają się z pseudotaktowymi	!LO:TX:t=P:problem:kreski taktowe w większości pokrywają się z pseudotaktowymi	!LO:TX:t=P:problem:kreski taktowe w większości pokrywają się z pseudotaktowymi	!LO:TX:t=P:problem:kreski taktowe w większości pokrywają się z pseudotaktowymi	!LO:TX:t=P:problem:kreski taktowe w większości pokrywają się z pseudotaktowymi	!	!LO:TX:t=P:problem:kreski taktowe w większości pokrywają się z pseudotaktowymi	!	!LO:TX:t=P:problem:kreski taktowe w większości pokrywają się z pseudotaktowymi	!	!LO:TX:t=P:problem:kreski taktowe w większości pokrywają się z pseudotaktowymi	!	!LO:TX:t=P:problem:kreski taktowe w większości pokrywają się z pseudotaktowymi	!	!LO:TX:t=P:problem:kreski taktowe w większości pokrywają się z pseudotaktowymi	!	!LO:TX:t=P:problem:kreski taktowe w większości pokrywają się z pseudotaktowymi	!	!LO:TX:t=P:problem:kreski taktowe w większości pokrywają się z pseudotaktowymi	!	!LO:TX:t=P:problem:kreski taktowe w większości pokrywają się z pseudotaktowymi	!LO:TX:t=P:problem:kreski taktowe w większości pokrywają się z pseudotaktowymi
!LO:TX:t=P:problem: całe nuty w źródle czasami są zamalowane czarnym atramentem	!	!	!	!	!	!	!	!	!	!	!	!	!	!	!	!	!	!	!	!	!	!
1d	00.r	00.r	00.r	00.r	00.r	.	00.r	.	00.r	.	00.r	.	00.r	.	1d	Di-	2d\	Di-	2f/	Di-	00.r	00.r
.	.	.	.	.	.	.	.	.	.	.	.	.	.	.	.	.	(2e\	-xit	(2g/	-xit	.	.
2d\	.	.	.	.	.	.	.	.	.	.	.	.	.	.	2d\	-xit	2f\)	.	2a\)	.	.	.
=2	=2	=2	=2	=2	=2	=2	=2	=2	=2	=2	=2	=2	=2	=2	=2	=2	=2	=2	=2	=2	=2	=2
1c#X	.	.	.	.	.	.	.	.	.	.	.	.	.	.	2.c#X\	Do-	2.e\	Do-	2.a\	Do-	.	.
.	.	.	.	.	.	.	.	.	.	.	.	.	.	.	4c#\	-mi-	4e\	-mi-	4a\	-mi-	.	.
2d\	.	.	.	.	.	.	.	.	.	.	.	.	.	.	2d\	-nus	2f\	-nus	2a\	-nus	.	.
=3	=3	=3	=3	=3	=3	=3	=3	=3	=3	=3	=3	=3	=3	=3	=3	=3	=3	=3	=3	=3	=3	=3
1G	.	.	.	.	.	.	.	.	.	.	.	.	.	.	2.G/	Do-	2.g\	Do-	2.b-X\	Do-	.	.
.	.	.	.	.	.	.	.	.	.	.	.	.	.	.	4G/	-mi-	4g\	-mi-	4b-\	-mi-	.	.
!LO:TX:t=P:problem:brak kreski taktowej	!	!	!	!	!	!	!	!	!	!	!	!	!	!	!	!	!	!	!	!	!	!
1A\	.	.	.	.	.	.	.	.	.	.	.	.	.	.	1A/	-no	2.f\	-no	2a\	-no	.	.
=4	=4	=4	=4	=4	=4	=4	=4	=4	=4	=4	=4	=4	=4	=4	=4	=4	=4	=4	=4	=4	=4	=4
.	.	.	.	.	.	.	.	.	.	.	.	.	.	.	.	.	.	.	(1a	me-	.	.
.	.	.	.	.	.	.	.	.	.	.	.	.	.	.	.	.	4e\	.	.	.	.	.
1B-X	.	.	.	.	.	.	.	.	.	.	.	.	.	.	1B-X	me-	1d	me-	.	.	.	.
.	.	.	.	.	.	.	.	.	.	.	.	.	.	.	.	.	.	.	2g/)	.	.	.
=5	=5	=5	=5	=5	=5	=5	=5	=5	=5	=5	=5	=5	=5	=5	=5	=5	=5	=5	=5	=5	=5	=5
1.A	00.r	00.r	00.r	00.r	00.r	.	00.r	.	00.r	.	00.r	.	00.r	.	2A/	-o,	2c#X/	-o,	2a\	-o,	00.r	00.r
.	.	.	.	.	.	.	.	.	.	.	.	.	.	.	2r	.	2a\	ſe-	2r	.	.	.
.	.	.	.	.	.	.	.	.	.	.	.	.	.	.	2r	.	2g\	-de	2r	.	.	.
=6	=6	=6	=6	=6	=6	=6	=6	=6	=6	=6	=6	=6	=6	=6	=6	=6	=6	=6	=6	=6	=6	=6
1d	.	.	.	.	.	.	.	.	.	.	.	.	.	.	2r	.	2f\	ſe-	1.r	.	.	.
.	.	.	.	.	.	.	.	.	.	.	.	.	.	.	2d\	ſe-	2f\	-de	.	.	.	.
2c\	.	.	.	.	.	.	.	.	.	.	.	.	.	.	2c\	-de	2e\	à	.	.	.	.
=7	=7	=7	=7	=7	=7	=7	=7	=7	=7	=7	=7	=7	=7	=7	=7	=7	=7	=7	=7	=7	=7	=7
1B-X	.	.	.	.	.	.	.	.	.	.	.	.	.	.	2B-X\	ſe-	2d\	dex-	2r	.	.	.
.	.	.	.	.	.	.	.	.	.	.	.	.	.	.	2B-\	-de,	2d\	-tris,	2dd\	ſe-	.	.
2A/	.	.	.	.	.	.	.	.	.	.	.	.	.	.	2A/	à	(4e\	ſe-	2cc\	-de	.	.
.	.	.	.	.	.	.	.	.	.	.	.	.	.	.	.	.	4f\	.	.	.	.	.
=8	=8	=8	=8	=8	=8	=8	=8	=8	=8	=8	=8	=8	=8	=8	=8	=8	=8	=8	=8	=8	=8	=8
1G	.	.	.	.	.	.	.	.	.	.	.	.	.	.	2G/	dex-	2g\)	.	2b-X\	ſe-	.	.
.	.	.	.	.	.	.	.	.	.	.	.	.	.	.	2G/	-tris	2g\	-de	2b-\	-de	.	.
2A/	.	.	.	.	.	.	.	.	.	.	.	.	.	.	2A/	/à	2f\	à	2a\	à	.	.
=9	=9	=9	=9	=9	=9	=9	=9	=9	=9	=9	=9	=9	=9	=9	=9	=9	=9	=9	=9	=9	=9	=9
*	*	*	*	*	*	*	*	*	*	*	*	*	*	*	*col	*	*col	*	*	*	*	*
!	!	!	!	!	!	!	!	!	!	!	!	!	!	!	!	!	!LO:LB:g=original	!	!	!	!	!
1c	0.r	0.r	0.r	0.r	00.r	.	00.r	.	00.r	.	00.r	.	0.r	.	1c	dex-	1e	dex-	1g	dex-	0.r	0.r
!LO:TX:t=P:problem:brak kreski taktowej	!	!	!	!	!	!	!	!	!	!	!	!	!	!	!	!	!	!	!	!	!	!
!LO:N:vis=3	!	!	!	!	!	!	!	!	!	!	!	!	!	!	!	!	!	!	!	!	!	!
1B-X\	.	.	.	.	.	.	.	.	.	.	.	.	.	.	1B\	-tris/	1f\	-tris	1g\	-tris	.	.
*	*	*	*	*	*	*	*	*	*	*	*	*	*	*	*	*	*Xcol	*	*	*	*	*
=10	=10	=10	=10	=10	=10	=10	=10	=10	=10	=10	=10	=10	=10	=10	=10	=10	=10	=10	=10	=10	=10	=10
.	.	.	.	.	.	.	.	.	.	.	.	.	.	.	.	.	.	.	.	.	.	.
1c	.	.	.	.	.	.	.	.	.	.	.	.	.	.	1c	me-	(2f\	me-	1gT	me-	.	.
.	.	.	.	.	.	.	.	.	.	.	.	.	.	.	.	.	2e\)	.	.	.	.	.
*	*	*	*	*	*	*	*	*	*	*	*	*	*	*	*Xcol	*	*	*	*	*	*	*
*clefF4	*	*	*	*	*	*	*	*	*	*	*	*	*	*	*	*	*	*	*	*	*	*
=11	=11	=11	=11	=11	=11	=11	=11	=11	=11	=11	=11	=11	=11	=11	=11	=11	=11	=11	=11	=11	=11	=11
!LO:TX:b:t=Baſ&colon; ſolo	!	!	!	!	!	!	!	!	!	!	!	!	!	!	!	!	!	!	!	!	!	!
!	!	!	!	!	!	!	!	!	!	!	!	!	!	!	!LO:LB:g=original	!	!	!	!	!	!	!
2F\	1.r	1.r	2r	2r	.	.	.	.	.	.	.	.	2r	.	2F/	-is,	2f\	-is,	2f/	-is.	2r	2r
!	!	!	!LO:TX:a:i:t=Solo	!LO:TX:a:i:t=Solo	!	!	!	!	!	!	!	!	!LO:TX:b:i:t=Solo	!	!	!	!	!	!	!	!LO:TX:a:i:t=Solo	!LO:TX:a:t=solo
1F	.	.	4f/	4a/	.	.	.	.	.	.	.	.	2F\	Do-	2r	.	2r	.	2r	.	4f/	4a/
.	.	.	4e/	4g/	.	.	.	.	.	.	.	.	.	.	.	.	.	.	.	.	4e/	4g/
.	.	.	4f/	4a/	.	.	.	.	.	.	.	.	2F\	-nec	2r	.	2r	.	2r	.	4f/	4a/
.	.	.	4g/	4b/	.	.	.	.	.	.	.	.	.	.	.	.	.	.	.	.	4g/	4b/
=12	=12	=12	=12	=12	=12	=12	=12	=12	=12	=12	=12	=12	=12	=12	=12	=12	=12	=12	=12	=12	=12	=12
!	!	!	!	!	!	!	!	!	!	!	!	!	!	!	!LO:TX:a:t=6	!	!LO:TX:a:t=6	!	!LO:TX:a:t=6	!	!	!
1F	2r	2r	4a/	4cc\	.	.	.	.	.	.	.	.	1F	po-	00.r	.	00.r	.	00.r	.	4a/	4cc\
.	.	.	4g/	4b/	.	.	.	.	.	.	.	.	.	.	.	.	.	.	.	.	4g/	4b/
!	!LO:TX:b:i:t=Solo	!LO:TX:a:i:t=Solo	!	!	!	!	!	!	!	!	!	!	!	!	!	!	!	!	!	!	!	!
.	2c/	2a\	4a/	4cc\	.	.	.	.	.	.	.	.	.	.	.	.	.	.	.	.	4a/	4cc\
.	.	.	4b/	4dd\	.	.	.	.	.	.	.	.	.	.	.	.	.	.	.	.	4b/	4dd\
2E\	2c/	2g/	4cc\	4ee\	.	.	.	.	.	.	.	.	2E\	-nam	.	.	.	.	.	.	4cc\	4ee\
.	.	.	4b/	4dd\	.	.	.	.	.	.	.	.	.	.	.	.	.	.	.	.	4b/	4dd\
=13	=13	=13	=13	=13	=13	=13	=13	=13	=13	=13	=13	=13	=13	=13	=13	=13	=13	=13	=13	=13	=13	=13
2.F\	2.c/	2.fT/	2a/	2.cc\	00.r	.	00.r	.	00.r	.	00.r	.	2.F\	i-	.	.	.	.	.	.	2a/	2.cc\
.	.	.	2a/	.	.	.	.	.	.	.	.	.	.	.	.	.	.	.	.	.	2a/	.
4C#X/	4c#X/	4e/	.	4ee\	.	.	.	.	.	.	.	.	4C#X/	-ni-	.	.	.	.	.	.	.	4ee\
2D/	2A/	2d/	4a/	4ff\	.	.	.	.	.	.	.	.	2D/	-mi-	.	.	.	.	.	.	4a/	4ff\
.	.	.	4b/	4gg\	.	.	.	.	.	.	.	.	.	.	.	.	.	.	.	.	4b/	4gg\
=14	=14	=14	=14	=14	=14	=14	=14	=14	=14	=14	=14	=14	=14	=14	=14	=14	=14	=14	=14	=14	=14	=14
2AA/	2e\	2c#X/	4cc#X\	2aa\	.	.	.	.	.	.	.	.	2AA/	-cos	.	.	.	.	.	.	4cc#X\	2aa\
.	.	.	8dd\L	.	.	.	.	.	.	.	.	.	.	.	.	.	.	.	.	.	8dd\L	.
.	.	.	8ee\J	.	.	.	.	.	.	.	.	.	.	.	.	.	.	.	.	.	8ee\J	.
!	!	!LO:TX:t=P:problem:brak kreski taktowej	!	!	!	!	!	!	!	!	!	!	!	!	!	!	!	!	!	!	!	!
1BB-X	4r	1d'	2.ddT\	2.aa\	.	.	.	.	.	.	.	.	1BB-X	tu-	.	.	.	.	.	.	2.ddT\	2.aa\
.	8r	.	.	.	.	.	.	.	.	.	.	.	.	.	.	.	.	.	.	.	.	.
.	8g\	.	.	.	.	.	.	.	.	.	.	.	.	.	.	.	.	.	.	.	.	.
.	2ryy	.	.	.	.	.	.	.	.	.	.	.	.	.	.	.	.	.	.	.	.	.
!	!	!	!	!	!	!	!	!	!	!	!	!	!	!	!	!	!	!	!	!	!	!LO:TX:t=P:problem:cztery błędne takty wykreślone
.	.	.	4dd\	4gg\	.	.	.	.	.	.	.	.	.	.	.	.	.	.	.	.	4dd\	4gg\
=15	=15	=15	=15	=15	=15	=15	=15	=15	=15	=15	=15	=15	=15	=15	=15	=15	=15	=15	=15	=15	=15	=15
!	!	!	!	!	!	!	!	!	!	!	!	!	!	!	!	!	!	!	!	!	!	!LO:LB:g=original
2.AA/	2e\	1.e	2.cc#X\	2.aa\	.	.	.	.	.	.	.	.	2.AA/	-os,	.	.	.	.	.	.	2.cc#X\	2.aa\
.	1c#X	.	.	.	.	.	.	.	.	.	.	.	.	.	.	.	.	.	.	.	.	.
4AA/	.	.	4cc#\	4aa\	.	.	.	.	.	.	.	.	4AA/	ſca-	.	.	.	.	.	.	4cc#\	4aa\
!LO:TX:t=P:problem:na pocz systemu został klucz c4, a powinien być f4	!	!	!	!	!	!	!	!	!	!	!	!	!	!	!	!	!	!	!	!	!	!
!LO:TX:t=P:problem:kreska pseudotaktowa	!	!	!	!	!	!	!	!	!	!	!	!	!	!	!	!	!	!	!	!	!	!
!LO:SIC:v:t=custos BB	!	!	!	!	!	!	!	!	!	!	!	!	!	!	!	!	!	!	!	!	!	!
!LO:LB:g=original	!	!	!	!	!	!	!	!	!	!	!	!	!	!	!	!	!	!	!	!	!	!
4BBn/	.	.	4dd\	2gg\	.	.	.	.	.	.	.	.	4BB/	-bel-	.	.	.	.	.	.	4dd\	2gg\
4C#X/	.	.	4ee\	.	.	.	.	.	.	.	.	.	4C#X/	-lum	.	.	.	.	.	.	4ee\	.
=16	=16	=16	=16	=16	=16	=16	=16	=16	=16	=16	=16	=16	=16	=16	=16	=16	=16	=16	=16	=16	=16	=16
2D/	2a\	2f/	4a/	4ff\	.	.	.	.	.	.	.	.	2D/	pe-	0.r	.	0.r	.	0.r	.	4a/	4ff\
.	.	.	8g/L	8ee\L	.	.	.	.	.	.	.	.	.	.	.	.	.	.	.	.	8g/L	8ee\L
.	.	.	8a/J	8ff\J	.	.	.	.	.	.	.	.	.	.	.	.	.	.	.	.	8a/J	8ff\J
2GG/	2g\	2d/	4b-X/	4gg\	.	.	.	.	.	.	.	.	2GG/	-dum	.	.	.	.	.	.	4b-X/	4gg\
.	.	.	8a/L	8ff\L	.	.	.	.	.	.	.	.	.	.	.	.	.	.	.	.	8a/L	8ff\L
.	.	.	8b-/J	8gg\J	.	.	.	.	.	.	.	.	.	.	.	.	.	.	.	.	8b-/J	8gg\J
!LO:N:vis=2	!	!	!	!	!	!	!	!	!	!	!	!	!	!	!	!	!	!	!	!	!	!
1FF/LL	4.d\	2f/	4a/	2.aa\	.	.	.	.	.	.	.	.	1FF/	tu-	.	.	.	.	.	.	4a/	2.aa\
.	.	.	4dd\	.	.	.	.	.	.	.	.	.	.	.	.	.	.	.	.	.	4dd\	.
.	8e\	.	.	.	.	.	.	.	.	.	.	.	.	.	.	.	.	.	.	.	.	.
=17	=17	=17	=17	=17	=17	=17	=17	=17	=17	=17	=17	=17	=17	=17	=17	=17	=17	=17	=17	=17	=17	=17
!	!	!	!LO:SIC:v:t=custos dd	!	!	!	!	!	!	!	!	!	!	!	!	!	!	!	!	!	!	!
!	!	!	!LO:LB:g=original	!	!	!	!	!	!	!	!	!	!	!	!	!	!	!	!	!	!	!
!	!	!	!	!	!	!	!	!	!	!	!	!	!	!	!	!	!	!	!	!	!LO:SIC:v:t=custos dd	!
.	4f\	2d/	2.dd\	.	1.r	.	1.r	.	1.r	.	1.r	.	.	.	.	.	.	.	.	.	2.dd\	.
.	4a\	.	.	8gg\L	.	.	.	.	.	.	.	.	.	.	.	.	.	.	.	.	.	8gg\L
.	.	.	.	8ff\J	.	.	.	.	.	.	.	.	.	.	.	.	.	.	.	.	.	8ff\J
!	!	!	!	!	!	!	!	!	!	!	!	!	!	!	!	!	!	!	!	!	!	!LO:TX:t=P:problem:wysokość podpisana g g
!LO:N:vis=2	!	!	!	!	!	!	!	!	!	!	!	!	!	!	!	!	!	!	!	!	!	!
1EE/JJ	2.g\	1et	.	(2.gg\	.	.	.	.	.	.	.	.	1EE	-o-	.	.	.	.	.	.	.	2.gg\
.	.	.	8cc#X\L	.	.	.	.	.	.	.	.	.	.	.	.	.	.	.	.	.	8cc#X\L	.
.	.	.	8b\J	.	.	.	.	.	.	.	.	.	.	.	.	.	.	.	.	.	8b\J	.
.	.	.	2cc#X\	.	.	.	.	.	.	.	.	.	.	.	.	.	.	.	.	.	2cc#X\	.
.	4a\	.	.	4gg\)	.	.	.	.	.	.	.	.	.	.	.	.	.	.	.	.	.	4gg\
=18	=18	=18	=18	=18	=18	=18	=18	=18	=18	=18	=18	=18	=18	=18	=18	=18	=18	=18	=18	=18	=18	=18
!	!	!	!LO:TX:b:t=tutti	!	!	!	!	!	!	!	!	!	!	!	!	!	!	!	!	!	!LO:TX:b:t=Tutti	!
!	!	!	!	!LO:LB:g=original	!	!	!	!	!	!	!	!	!	!	!	!	!	!	!LO:LB:g=original	!	!	!
!	!	!	!	!	!	!	!	!	!	!	!	!	!	!	!	!	!	!	!	!	!LO:SIC:v:t=custos dd	!
!	!	!	!	!	!	!	!	!	!	!	!	!	!	!	!	!	!	!	!	!	!LO:LB:g=original	!
2DD/	2a\	2f/	2dd\	2ff\	2r	.	2r	.	2r	.	2r	.	2DD/	-rum.	2r	.	2r	.	2r	.	2dd\	2ff\
!LO:TX:b:t=tutti	!LO:TX:b:i:t=tutti	!LO:TX:b:i:t=tutti	!	!LO:TX:b:i:t=tutti	!	!	!	!	!	!	!	!	!LO:TX:a:t=tutti	!	!	!	!	!	!	!	!	!
1D	2f\	2a\	2ff\	2aa\	2D/	Vir-	2d\	Vir-	2f\	Vir-	2a\	Vir-	2D/	Vir-	2d\	Vir-	2f\	Vir-	2a\	Vir-	2ff\	2aa\
.	2f\	2a\	2ff\	2aa\	2D/	-gam	2d\	-gam	2f\	-gam	2a\	-gam	2D/	-gam	2d\	-gam	2f\	-gam	2a\	-gam	2ff\	2aa\
=19	=19	=19	=19	=19	=19	=19	=19	=19	=19	=19	=19	=19	=19	=19	=19	=19	=19	=19	=19	=19	=19	=19
!	!LO:SIC:v:t=custos e	!	!	!	!	!	!	!	!	!	!	!	!	!	!	!	!	!	!	!	!	!
!	!LO:LB:g=original	!	!	!	!	!	!	!	!	!	!	!	!LO:LB:g=original	!	!	!	!	!	!	!	!	!
2C#X/	2e\	2a\	4aa\	4aa\	2C#X/	vir-	2A/	vir-	2e\	vir-	2a\	vir-	2C#X/	vir-	2A/	vir-	2e\	vir-	2a\	vir-	4aa\	4aa\
!	!	!	!	!	!	!	!	!	!	!	!	!	!	!	!	!	!	!	!	!	!	!LO:TX:t=P:problem:- above
.	.	.	4gg\	4bb-X\	.	.	.	.	.	.	.	.	.	.	.	.	.	.	.	.	4gg\	4bb-X\
2D/	2f\	2a\	4ff\	4aa\	2D/	-tu-	2A/	-tu-	2f\	-tu-	2a\	-tu-	2D/	-tu-	2A/	-tu-	2f\	-tu-	2a\	-tu-	4ff\	4aa\
.	.	.	4gg\	4gg\	.	.	.	.	.	.	.	.	.	.	.	.	.	.	.	.	4gg\	4gg\
2AA/	(2f\	2a\	4aa\	2ff\	2AA/	-tis	2c\	-tis	2f\	-tis	(2a\	-tis	2AA/	-tis	2c\	-tis	2f\	-tis	2a\	-tis	4aa\	2ff\
.	.	.	4ccc\	.	.	.	.	.	.	.	.	.	.	.	.	.	.	.	.	.	4ccc\	.
=20	=20	=20	=20	=20	=20	=20	=20	=20	=20	=20	=20	=20	=20	=20	=20	=20	=20	=20	=20	=20	=20	=20
2BB-X/	2f)	2g/	2bb-X\	2gg\	(2BB-X/	tu-	(2d\	tu-	(1f	tu-	2g/)	.	(2BB-X/	tu-	(2d\	tu-	(1f	tu-	1.gT	tu-	2bb-X\	2gg\
!	!	!LO:TX:t=P:problem:brak kreski taktowej	!	!	!	!	!	!	!	!	!	!	!	!	!	!	!	!	!	!	!	!
!	!	!LO:LB:g=original	!	!	!	!	!	!	!	!	!	!	!	!	!	!	!	!	!	!	!	!
1C	2.fT\	1g	2gg\	1ggT	1C)	.	1c)	.	.	.	1gT	tu-	1C)	.	1c)	.	.	.	.	.	2gg\	1ggT
.	.	.	2cc\	.	.	.	.	.	2e\)	.	.	.	.	.	.	.	2e\)	.	.	.	2cc\	.
.	4e\	.	.	.	.	.	.	.	.	.	.	.	.	.	.	.	.	.	.	.	.	.
=21	=21	=21	=21	=21	=21	=21	=21	=21	=21	=21	=21	=21	=21	=21	=21	=21	=21	=21	=21	=21	=21	=21
1FF	2.f\	2.a\	1cc	2.ff\	2.FF/	-(ae)	2.c\	-(ae)	2.f\	-(ae)	2.a\	-(ae)	(2.FF/	-(ae)	2.c\	-(ae)	2.f\	-(ae),	2.a\	-(ae)	1cc	2.ff\
.	4f\	4a\	.	4ff\	4FF/	e-	4c\	e-	4f\	e-	4a\	e-	4FF/)	e-	4c\	e-	4f\	e-	4a\	e-	.	4ff\
2AA/	4f\	4cc\	2cc\	4ff\	4AA/	-mit-	4c\	-mit-	4f\	-mit-	4cc\	-mit-	4AA/	-mit-	4c\	-mit-	4f\	-mit-	4cc\	-mit-	2cc\	4ff\
.	4f\	4cc\	.	4ff\	4AA/	-tet	4c\	-tet	4f\	-tet	4cc\	-tet	4AA/	-tet	4c\	-tet	4f\	-tet	4cc\	-tet	.	4ff\
=22	=22	=22	=22	=22	=22	=22	=22	=22	=22	=22	=22	=22	=22	=22	=22	=22	=22	=22	=22	=22	=22	=22
1C	2.e\	2.g/	2.ee\	1gg	2.C/	Do-	2.c\	Do-	2.e\	Do-	2.g/	Do-	2.C/	Do-	2.c\	Do-	2.e\	Do-	2.g/	Do-	2.ee\	1gg
.	4f#X\	4a\	4ee\	.	4C/	-mi-	4c\	-mi-	4f#X\	-mi-	4a\	-mi-	4C/	-mi-	4c\	-mi-	4f#X\	-mi-	4a\	-mi-	4ee\	.
2BB-X/	2g\	2b-X\	2dd\	2gg\	2BB-X/	-nus	2d\	-nus	2g\	-nus	2b-X\	-nus	2BB-X/	-nus	2d\	-nus	2g\	-nus	2b-X\	-nus	2dd\	2gg\
=23	=23	=23	=23	=23	=23	=23	=23	=23	=23	=23	=23	=23	=23	=23	=23	=23	=23	=23	=23	=23	=23	=23
2C/	2g\	2a\	2cc\	2aa\	2C/	ex	2e-X\	ex	2g\	ex	2a\	ex	2C/	ex	2e-X\	ex	2g\	ex	2a\	ex	2cc\	2aa\
1D	2g\	1aT	2a/	1aaT	1D	Si-	1d	Si-	(2g\	Si-	1gT	Si-	1D	Si-	1d	Si-	(2g\	Si-	1aT	Si-	2a/	1aa
.	2f#X\	.	2dd\	.	.	.	.	.	2f#X\)	.	.	.	.	.	.	.	2f#X\)	.	.	.	2dd\	.
=24	=24	=24	=24	=24	=24	=24	=24	=24	=24	=24	=24	=24	=24	=24	=24	=24	=24	=24	=24	=24	=24	=24
!	!	!	!	!	!LO:SIC:v:t=custos GG	!	!	!	!	!	!	!	!	!	!	!	!	!	!	!	!	!
!	!	!	!	!	!LO:LB:g=original	!	!	!	!	!	!	!	!	!	!	!	!	!	!	!	!	!
2GG/	2g\	2g/	2dd\	2bb-X\	2GG/	-on	2d\	-on	2g,\	-on,	2g/	-on,	2GG/	-on,	2d\	-on	2g\	-on,	2g/	-on,	2dd\	2bb-X\
1G	2g\	2b\	4dd\	2bbn\	2G\	Do-	2d\	Do-	2g\	Do-	2bn\	Do-	2G\	Do-	2d\	Do-	2g\	Do-	2bn\	Do-	4dd\	2bbn\
.	.	.	4cc\	.	.	.	.	.	.	.	.	.	.	.	.	.	.	.	.	.	4cc\	.
.	2g\	2b\	4dd\	2bb\	2G\	-mi-	2Bn\	-mi-	2g\	-mi-	2b\	-mi-	2G\	-mi-	2B\	-mi-	2g\	-mi-	2b\	-mi-	4dd\	2bb\
.	.	.	4ee\	.	.	.	.	.	.	.	.	.	.	.	.	.	.	.	.	.	4ee\	.
=25	=25	=25	=25	=25	=25	=25	=25	=25	=25	=25	=25	=25	=25	=25	=25	=25	=25	=25	=25	=25	=25	=25
*	*	*	*	*	*	*	*	*	*	*	*	*	*	*	*	*	*	*	*	*	*col	*
!	!	!	!	!	!	!	!LO:LB:g=original	!	!LO:LB:g=original	!	!LO:LB:g=original	!	!	!	!	!	!LO:LB:g=original	!	!	!	!	!
1F#X	2a\	2dd\	4ff#X\	4aa\	2F#X\	-na-	2A/	-na-	2a\	-na-	2dd\	-na-	2F#X\	-na-	2A/	-na-	2a\	-na-	2dd\	-na-	2.ff#X\	4aa\
.	.	.	4ee\	4gg\	.	.	.	.	.	.	.	.	.	.	.	.	.	.	.	.	.	4gg\
!	!	!	!	!	!	!	!	!	!	!	!	!	!	!	!	!	!	!	!	!	!	!LO:SIC:v:t=custos ff#
!	!	!	!	!	!	!	!	!	!	!	!	!	!	!	!	!	!	!	!	!	!	!LO:LB:g=original
.	2a\	2dd\	4dd\	4ff#X\	2F#\	-re	2A/	-re	2a\	-re	2dd\	-re	2F#\	-re	2A/	-re	2a\	-re	2dd\	-re	.	4ff#X\
.	.	.	4cc\	4ee\	.	.	.	.	.	.	.	.	.	.	.	.	.	.	.	.	12ee\L	4ee\
.	.	.	.	.	.	.	.	.	.	.	.	.	.	.	.	.	.	.	.	.	12dd\	.
.	.	.	.	.	.	.	.	.	.	.	.	.	.	.	.	.	.	.	.	.	12cc\J	.
*	*	*	*	*	*	*	*	*	*	*	*	*	*	*	*	*	*	*	*	*	*Xcol	*
2G\	2g\	2dd\	4b/	2dd\	2G\	in	2B\	in	2g\	in	2dd\	in	2G\	in	2B\	in	2g\	in	2dd\	in	4b/	2dd\
.	.	.	4a/	.	.	.	.	.	.	.	.	.	.	.	.	.	.	.	.	.	4a/	.
=26	=26	=26	=26	=26	=26	=26	=26	=26	=26	=26	=26	=26	=26	=26	=26	=26	=26	=26	=26	=26	=26	=26
!	!	!	!LO:LB:g=original	!	!	!	!	!	!	!	!	!	!	!	!	!	!	!	!	!	!	!
!	!	!	!	!	!	!	!	!	!	!	!	!	!	!	!LO:SIC:v:t=custos B	!	!	!	!	!	!	!
!	!	!	!	!	!	!	!	!	!	!	!	!	!	!	!LO:LB:g=original	!	!	!	!	!	!	!
1E	2.g\	2.dd\	2.b/	2gg\	2.E\	me-	2.B\	me-	2.g\	me-	2.ddT\	me-	2.E\	me-	2B\	me-	2.g\	me-	2.dd\	me-	2.b/	2gg\
.	.	.	.	2ee\	.	.	.	.	.	.	.	.	.	.	4A/	-di-	.	.	.	.	.	2ee\
.	4g\	4cc#X\	4cc#X\	.	4E\	-di-	4G/	-di	4g\	-di-	4cc#X\	-di-	4E\	-di-	4G/	.	4g\	-di-	4cc#X\	-di-	4cc#X\	.
!	!	!	!	!LO:SIC:v:t=custos ff#	!	!	!	!	!	!	!	!	!	!	!	!	!	!	!	!	!	!
!	!	!	!	!LO:LB:g=original	!	!	!	!	!	!	!	!	!	!	!	!	!	!	!	!	!	!
2D/	2f#X\	2dd\	2a/	2.ff#X\	2D/	-o	2A/	o	2f#X\	-o	2dd\	-o,	2D/	-o	2A/	-o,	2f#X\	-o	2dd\	-o	2a/	2.ff#X\
=27	=27	=27	=27	=27	=27	=27	=27	=27	=27	=27	=27	=27	=27	=27	=27	=27	=27	=27	=27	=27	=27	=27
!	!LO:SIC:v:t=custos A	!	!	!	!	!	!	!	!	!	!	!	!	!	!	!	!	!	!	!	!	!
!	!LO:LB:g=original	!	!	!	!	!	!	!	!	!	!	!	!	!	!	!	!	!	!LO:LB:g=original	!	!	!
2D/	2a\	2dd\	2a/	.	2D/	i-	2F#X/	i-	2a\	i-	2dd\	i-	2D/	i-	2F#X/	i-	2a\	i-	2dd\	i-	2a/	.
.	.	.	.	4dd\	.	.	.	.	.	.	.	.	.	.	.	.	.	.	.	.	.	4dd\
!LO:SIC:v:t=custos E	!	!	!	!	!	!	!	!	!	!	!	!	!	!	!	!	!	!	!	!	!	!
!LO:PB:g=original	!	!	!	!	!	!	!	!	!	!	!	!	!	!	!	!	!	!	!	!	!	!
2E\	2g\	2.ccT\	2.cc\	4gg\	2E\	-ni-	2G/	-ni-	2g\	-ni-	2cc\	-ni-	2E\	-ni-	2G/	-ni-	2g\	-ni-	2cc\	-ni-	2.cc\	4gg\
.	.	.	.	4ee\	.	.	.	.	.	.	.	.	.	.	.	.	.	.	.	.	.	4ee\
!	!	!	!	!	!	!	!	!	!	!	!	!	!LO:TX:t=P:problem:# above	!	!	!	!	!	!	!	!	!
2F#X\	2f#X\	.	.	2aa\	2F#X\	-mi-	2A/	-mi-	2f#X\	-mi-	2cc\	-mi-	2F#X\	-mi-	2A/	-mi-	2f#X\	-mi-	2cc\	-mi-	.	2aa\
.	.	4cc\	4a/	.	.	.	.	.	.	.	.	.	.	.	.	.	.	.	.	.	4a/	.
=28	=28	=28	=28	=28	=28	=28	=28	=28	=28	=28	=28	=28	=28	=28	=28	=28	=28	=28	=28	=28	=28	=28
!	!	!	!	!	!	!	!	!	!	!	!	!	!LO:LB:g=original	!	!	!	!	!	!	!	!LO:LB:g=original	!
2G\	2d\	2b-X\	2dd\	2bb-X\	2G\	-co-	2G/	-co-	2d\	-co-	(2b-X\	-co-	2G\	-co-	2G/	-co-	2d\	-co-	2b-X\	-co-	2dd\	2bb-X\
2C/	2e-X\	2cc\	2cc\	2gg\	2C/	-rum	2G/	-rum	2e-X\	-rum	2cc\)	-rum	2C/	-rum	2G/	-rum	2e-X\	-rum	2cc\	-rum	2cc\	2gg\
!	!LO:N:vis=2	!	!	!	!	!	!	!	!	!	!	!	!	!	!	!	!	!	!	!	!	!
2BB-X/	(2g\	2dd\	4g/	2gg\	2BB-X/	tu-	2B-X\	tu-	(2g\	tu-	2dd\	tu-	2BB-X/	tu-	2B-X\	tu-	2g\	tu-	2dd\	tu-	4g/	2gg\
.	.	.	4dd\	.	.	.	.	.	.	.	.	.	.	.	.	.	.	.	.	.	4dd\	.
=29	=29	=29	=29	=29	=29	=29	=29	=29	=29	=29	=29	=29	=29	=29	=29	=29	=29	=29	=29	=29	=29	=29
2C/	2g)	2ee-X\	4cc\	1aa	(2C/	-o-	1.AT	-o-	2g)	.	2ee-X\	-o-	(2C/	-o-	1.A	-o-	(1g	-o-	(2ee-X\	-o-	4cc\	1aa
.	.	.	4b-X/	.	.	.	.	.	.	.	.	.	.	.	.	.	.	.	.	.	4b-X/	.
!	!	!LO:TX:t=P:problem:brak kreski taktowej	!	!	!	!	!	!	!	!	!LO:TX:t=P:problem:brak kreski taktowej	!	!	!	!	!	!	!	!	!	!	!
1D	2.g\	1dd	2a/	.	1D)	.	.	.	(2g\	-o-	1dd	.	1D)	.	.	.	.	.	1dd)	.	2a/	.
.	.	.	2dd\	2aa\	.	.	.	.	2f#X\)	.	.	.	.	.	.	.	2f#X\)	.	.	.	2dd\	2aa\
.	4f#X\	.	.	.	.	.	.	.	.	.	.	.	.	.	.	.	.	.	.	.	.	.
=30	=30	=30	=30	=30	=30	=30	=30	=30	=30	=30	=30	=30	=30	=30	=30	=30	=30	=30	=30	=30	=30	=30
!	!	!LO:LB:g=original	!	!	!	!	!	!	!	!	!	!	!	!	!	!	!	!	!	!	!	!
1.GG;	1.g	1.dd	1.dd	1.bb;	1.GG	-rum	1.G;	-rum	1.g;	-rum,	1.dd;	-rum,	1.GG	-rum	1.G;	-rum,	1.g;	-rum.	1.dd;	-rum,	1.dd	1.bb;
*clefC4	*	*	*	*	*	*	*	*	*	*	*	*	*	*	*	*	*	*	*	*	*	*
=31	=31	=31	=31	=31	=31	=31	=31	=31	=31	=31	=31	=31	=31	=31	=31	=31	=31	=31	=31	=31	=31	=31
!LO:TX:t=P:problem:t. 3135 faktycznie pasują dźwięki tylko wg klucza c4, ale od 36 już wg klucza basowego, jednak brak zmiany	!LO:TX:a:t=16	!LO:TX:a:t=16	!LO:TX:a:t=12	!LO:TX:a:t=12	!LO:TX:a:t=27	!	!LO:TX:a:t=27	!	!LO:TX:a:t=27	!	!LO:TX:a:t=27	!	!LO:TX:a:t=12	!	!	!	!	!	!LO:TX:b:t=a3	!	!LO:TX:a:t=12	!LO:TX:a:t=12
1.G	00.r	00.r	00.r	00.r	00.r	.	00.r	.	00.r	.	00.r	.	00.r	.	2G/	Te-	2g\	Te-	2b-X\	Te-	00.r	00.r
.	.	.	.	.	.	.	.	.	.	.	.	.	.	.	2G/	-um	2g\	-cum	2b-\	-cum	.	.
.	.	.	.	.	.	.	.	.	.	.	.	.	.	.	2G/	prin-	2g\	prin-	2b-\	prin-	.	.
=32	=32	=32	=32	=32	=32	=32	=32	=32	=32	=32	=32	=32	=32	=32	=32	=32	=32	=32	=32	=32	=32	=32
1d	.	.	.	.	.	.	.	.	.	.	.	.	.	.	2.d\	-ci-	2.f#X\	-ci-	2.a\	-ci-	.	.
.	.	.	.	.	.	.	.	.	.	.	.	.	.	.	4d\	-pi-	4d\	-pi-	4f#X/	-pi-	.	.
2c\	.	.	.	.	.	.	.	.	.	.	.	.	.	.	4c\	-um	4e\	-um	4g/	-um	.	.
.	.	.	.	.	.	.	.	.	.	.	.	.	.	.	4c\	in	4f#\	in	4a\	in	.	.
=33	=33	=33	=33	=33	=33	=33	=33	=33	=33	=33	=33	=33	=33	=33	=33	=33	=33	=33	=33	=33	=33	=33
!	!	!	!	!	!	!	!	!	!	!	!	!	!	!	!	!	!LO:SIC:v:t=custos g	!	!	!	!	!
!	!	!	!	!	!	!	!	!	!	!	!	!	!	!	!	!	!LO:LB:g=original	!	!	!	!	!
1.B-X	.	.	.	.	.	.	.	.	.	.	.	.	.	.	2B-X\	di-	2g\	di-	2b-X\	di-	.	.
.	.	.	.	.	.	.	.	.	.	.	.	.	.	.	4B-X\	-e	4d\	-e	4b-\	-e	.	.
.	.	.	.	.	.	.	.	.	.	.	.	.	.	.	4B-X\	vir-	4e\	vir-	4cc\	vir-	.	.
.	.	.	.	.	.	.	.	.	.	.	.	.	.	.	2B-X\	-tu-	2f\	-tu-	2dd\	-tu-	.	.
=34	=34	=34	=34	=34	=34	=34	=34	=34	=34	=34	=34	=34	=34	=34	=34	=34	=34	=34	=34	=34	=34	=34
2A/	.	.	.	.	.	.	.	.	.	.	.	.	.	.	2A/	-tis	2f\	-tis	2cc\	-tis	.	.
1G	.	.	.	.	.	.	.	.	.	.	.	.	.	.	1G	tu-	(2f\	tu-	1b-X	tu-	.	.
.	.	.	.	.	.	.	.	.	.	.	.	.	.	.	.	.	2e\)	.	.	.	.	.
=35	=35	=35	=35	=35	=35	=35	=35	=35	=35	=35	=35	=35	=35	=35	=35	=35	=35	=35	=35	=35	=35	=35
1F	00.r	00.r	00.r	00.r	00.r	.	00.r	.	00.r	.	0.	.	00.r	.	2F/	-(ae)	2f\	-(ae)	2a\	-(ae)	00.r	00.r
.	.	.	.	.	.	.	.	.	.	.	.	.	.	.	2F/	in	2f\	in	2a\	in	.	.
2F/	.	.	.	.	.	.	.	.	.	.	.	.	.	.	2F/	ſplen-	2a\	ſplen-	2cc\	ſplen-	.	.
*clefF4	*	*	*	*	*	*	*	*	*	*	*	*	*	*	*	*	*	*	*	*	*	*
=36	=36	=36	=36	=36	=36	=36	=36	=36	=36	=36	=36	=36	=36	=36	=36	=36	=36	=36	=36	=36	=36	=36
!	!	!	!	!	!	!	!	!	!	!	!	!	!	!	!LO:LB:g=original	!	!	!	!LO:LB:g=original	!	!	!
1G	.	.	.	.	.	.	.	.	.	.	.	.	.	.	2.G/	-do-	2.g\	-do-	2.b-X\	-do-	.	.
.	.	.	.	.	.	.	.	.	.	.	.	.	.	.	4G/	-ri-	4g\	-ri-	4b-\	-ri-	.	.
!LO:TX:t=P:problem:brak kreski taktowej	!	!	!	!	!	!	!	!	!	!	!	!	!	!	!	!	!	!	!	!	!	!
1A\	.	.	.	.	.	.	.	.	.	.	.	.	.	.	2A/	-bus	2.f\	-bus	2a\	-bus	.	.
=37	=37	=37	=37	=37	=37	=37	=37	=37	=37	=37	=37	=37	=37	=37	=37	=37	=37	=37	=37	=37	=37	=37
.	.	.	.	.	.	.	.	.	.	.	00.r	.	.	.	2A/	ſanc-	.	.	2a\	ſanc-	.	.
.	.	.	.	.	.	.	.	.	.	.	.	.	.	.	.	.	4e\	ſanc-	.	.	.	.
1B-X	.	.	.	.	.	.	.	.	.	.	.	.	.	.	1B-X	-to-	1d	-to-	(2a\	-to-	.	.
.	.	.	.	.	.	.	.	.	.	.	.	.	.	.	.	.	.	.	2g\)	.	.	.
=38	=38	=38	=38	=38	=38	=38	=38	=38	=38	=38	=38	=38	=38	=38	=38	=38	=38	=38	=38	=38	=38	=38
1.A	.	.	.	.	.	.	.	.	.	.	.	.	.	.	1A	-rum	1c#X	-rum,	1a	-rum,	.	.
.	.	.	.	.	.	.	.	.	.	.	.	.	.	.	2A/	ex	2c#X/	ex	2e/	ex	.	.
=39	=39	=39	=39	=39	=39	=39	=39	=39	=39	=39	=39	=39	=39	=39	=39	=39	=39	=39	=39	=39	=39	=39
1.D	00.r	00.r	00.r	00.r	00.r	.	00.r	.	00.r	.	.	.	00.r	.	2.D/	u-	2.d\	u-	2.f/	u-	00.r	00.r
.	.	.	.	.	.	.	.	.	.	.	.	.	.	.	4D/	-te-	4d\	-te-	4f/	-te-	.	.
.	.	.	.	.	.	.	.	.	.	.	.	.	.	.	2D/	-ro	2d\	-ro	2f/	-ro	.	.
=40	=40	=40	=40	=40	=40	=40	=40	=40	=40	=40	=40	=40	=40	=40	=40	=40	=40	=40	=40	=40	=40	=40
2G\	.	.	.	.	.	.	.	.	.	.	.	.	.	.	2G/	an-	2B/	an-	2d/	an-	.	.
2F\	.	.	.	.	.	.	.	.	.	.	.	.	.	.	2F/	-te	2B/	-te	2d/	-te	.	.
2E\	.	.	.	.	.	.	.	.	.	.	.	.	.	.	2E/	lu-	2c#X/	lu-	2e/	lu-	.	.
=41	=41	=41	=41	=41	=41	=41	=41	=41	=41	=41	=41	=41	=41	=41	=41	=41	=41	=41	=41	=41	=41	=41
1D	.	.	.	.	.	.	.	.	.	.	00.r	.	.	.	2.D/	-ci-	2.d\	-ci-	2.f/	-ci-	.	.
.	.	.	.	.	.	.	.	.	.	.	.	.	.	.	4E/	-fe-	4d\	-fe-	4g/	-fe-	.	.
2F\	.	.	.	.	.	.	.	.	.	.	.	.	.	.	2F/	-rum	2d\	-rum	2a\	-rum	.	.
=42	=42	=42	=42	=42	=42	=42	=42	=42	=42	=42	=42	=42	=42	=42	=42	=42	=42	=42	=42	=42	=42	=42
!	!	!	!	!	!	!	!	!	!	!	!	!	!	!	!	!	!LO:LB:g=original	!	!	!	!	!
1G	.	.	.	.	.	.	.	.	.	.	.	.	.	.	2.G/	ge-	2.d\	ge-	2.et/	ge-	.	.
.	.	.	.	.	.	.	.	.	.	.	.	.	.	.	4G/	-nu-	4d\	-nu-	4e/	-nu-	.	.
2A\	.	.	.	.	.	.	.	.	.	.	.	.	.	.	2A/	-i	2c#X/	-i	2e/	-i	.	.
=43	=43	=43	=43	=43	=43	=43	=43	=43	=43	=43	=43	=43	=43	=43	=43	=43	=43	=43	=43	=43	=43	=43
!LO:SIC:v:t=custos D	!	!	!	!	!	!	!	!	!	!	!	!	!	!	!	!	!	!	!	!	!	!
1D	00.r	00.r	2r	2r	00.r	.	00.r	.	00.r	.	.	.	2r	.	1.D	te	1.d	te,	1.d	te,	2r	2r
.	.	.	2r	2r	.	.	.	.	.	.	.	.	2r	.	.	.	.	.	.	.	2r	2r
!	!	!	!LO:TX:b:i:t=Solo	!LO:TX:b:i:t=Solo	!	!	!	!	!	!	!	!	!LO:TX:a:i:t=Solo	!	!	!	!	!	!	!	!LO:TX:b:i:t=Solo	!LO:TX:b:i:t=Solo
2D/	.	.	2ff\	2aa\	.	.	.	.	.	.	.	.	2D/	Ju-	.	.	.	.	.	.	2ff\	2aa\
=44	=44	=44	=44	=44	=44	=44	=44	=44	=44	=44	=44	=44	=44	=44	=44	=44	=44	=44	=44	=44	=44	=44
!	!	!	!	!	!	!	!	!	!	!	!	!	!	!	!LO:TX:a:t=14	!	!LO:TX:a:t=14	!	!LO:TX:a:t=14	!	!	!
2.D/	.	.	2.ff\	2.aa\	.	.	.	.	.	.	.	.	2.D/	-ra-	00.r	.	00.r	.	00.r	.	2.ff\	2.aa\
4E\	.	.	4ee\	4gg\	.	.	.	.	.	.	.	.	4E\	.	.	.	.	.	.	.	4ee\	4gg\
4F\	.	.	2dd\	2ff\	.	.	.	.	.	.	.	.	(4F\	.	.	.	.	.	.	.	2dd\	2ff\
4G\	.	.	.	.	.	.	.	.	.	.	.	.	4G\	.	.	.	.	.	.	.	.	.
=45	=45	=45	=45	=45	=45	=45	=45	=45	=45	=45	=45	=45	=45	=45	=45	=45	=45	=45	=45	=45	=45	=45
!LO:SIC:v:t=custos A	!	!	!	!	!	!	!	!	!	!	!	!	!	!	!	!	!	!	!	!	!	!
!LO:LB:g=original	!	!	!	!	!	!	!	!	!	!	!	!	!	!	!	!	!	!	!	!	!	!
4A\	.	.	4cc\	2.ee\	.	.	.	.	.	.	00.r	.	4A\	.	.	.	.	.	.	.	4cc\	2.ee\
4B\	.	.	8b/L	.	.	.	.	.	.	.	.	.	4B\	.	.	.	.	.	.	.	8b/L	.
.	.	.	8a/J	.	.	.	.	.	.	.	.	.	.	.	.	.	.	.	.	.	8a/J	.
2c\	.	.	2.g/	.	.	.	.	.	.	.	.	.	2c\)	.	.	.	.	.	.	.	2.g/	.
.	.	.	.	4ff\	.	.	.	.	.	.	.	.	.	.	.	.	.	.	.	.	.	4ff\
2E\	.	.	.	4gg\	.	.	.	.	.	.	.	.	2E\	-vit	.	.	.	.	.	.	.	4gg\
.	.	.	4a/	8ff\L	.	.	.	.	.	.	.	.	.	.	.	.	.	.	.	.	4a/	8ff\L
.	.	.	.	8ee\J	.	.	.	.	.	.	.	.	.	.	.	.	.	.	.	.	.	8ee\J
=46	=46	=46	=46	=46	=46	=46	=46	=46	=46	=46	=46	=46	=46	=46	=46	=46	=46	=46	=46	=46	=46	=46
1.G	.	.	2.b/	2.dd\	.	.	.	.	.	.	.	.	2.G\	Do-	.	.	.	.	.	.	2.b/	2.dd\
.	.	.	4b/	4dd\	.	.	.	.	.	.	.	.	4G\	-mi-	.	.	.	.	.	.	4b/	4dd\
.	.	.	2b/	2dd\	.	.	.	.	.	.	.	.	2G\	-nus	.	.	.	.	.	.	2b/	2dd\
=47	=47	=47	=47	=47	=47	=47	=47	=47	=47	=47	=47	=47	=47	=47	=47	=47	=47	=47	=47	=47	=47	=47
!	!LO:TX:b:i:t=Solo	!LO:TX:b:i:t=Solo	!	!	!	!	!	!	!	!	!	!	!	!	!	!	!	!	!	!	!	!
!	!	!	!LO:LB:g=original	!	!	!	!	!	!	!	!	!	!	!	!	!	!	!	!	!	!	!
!	!	!	!	!	!	!	!	!	!	!	!	!	!	!	!	!	!	!	!	!	!	!LO:SIC:v:t=custos bb
!	!	!	!	!	!	!	!	!	!	!	!	!	!	!	!	!	!	!	!	!	!	!LO:LB:g=original
2.G\	2.d\	2.g/	4b/	2.bb\	00.r	.	00.r	.	00.r	.	.	.	2.G\	et	.	.	.	.	.	.	4b/	2.bb\
.	.	.	4cc\	.	.	.	.	.	.	.	.	.	.	.	.	.	.	.	.	.	4cc\	.
.	.	.	8dd\L	.	.	.	.	.	.	.	.	.	.	.	.	.	.	.	.	.	8dd\L	.
.	.	.	8ee\J	.	.	.	.	.	.	.	.	.	.	.	.	.	.	.	.	.	8ee\J	.
4D/	4f#X\	4f#X/	4ff#X\	4aa\	.	.	.	.	.	.	.	.	4D/	non	.	.	.	.	.	.	4ff#X\	4aa\
(2.E\	2.e\	2g/	4b/	2.gg\	.	.	.	.	.	.	.	.	2.E\	p(oe)-	.	.	.	.	.	.	4b/	2.gg\
.	.	.	4g/	.	.	.	.	.	.	.	.	.	.	.	.	.	.	.	.	.	4g/	.
=48	=48	=48	=48	=48	=48	=48	=48	=48	=48	=48	=48	=48	=48	=48	=48	=48	=48	=48	=48	=48	=48	=48
.	.	1g	8b\L	.	.	.	.	.	.	.	.	.	.	.	00.r	.	00.r	.	00.r	.	8b\L	.
.	.	.	8cc\J	.	.	.	.	.	.	.	.	.	.	.	.	.	.	.	.	.	8cc\J	.
!	!	!	!	!LO:TX:t=P:problem:# above	!	!	!	!	!	!	!	!	!	!	!	!	!	!	!	!	!	!LO:TX:t=P:problem:# above
4BB/)	4d\	.	4dd\	4ff#X\	.	.	.	.	.	.	.	.	4BB/	-ni-	.	.	.	.	.	.	4dd\	4ff#X\
2.C/	2.c/	.	4g/	2.ee\	.	.	.	.	.	.	.	.	2.C/	-te-	.	.	.	.	.	.	4g/	2.ee\
.	.	.	4e/	.	.	.	.	.	.	.	.	.	.	.	.	.	.	.	.	.	4e/	.
.	.	2g/	8g/L	.	.	.	.	.	.	.	.	.	.	.	.	.	.	.	.	.	8g/L	.
.	.	.	8a/J	.	.	.	.	.	.	.	.	.	.	.	.	.	.	.	.	.	8a/J	.
4GG/	4B/	.	4b/	4ee\	.	.	.	.	.	.	.	.	4GG/	-bit	.	.	.	.	.	.	4b/	4ee\
=49	=49	=49	=49	=49	=49	=49	=49	=49	=49	=49	=49	=49	=49	=49	=49	=49	=49	=49	=49	=49	=49	=49
!	!	!	!	!LO:LB:g=original	!	!	!	!	!	!	!	!	!LO:LB:g=original	!	!	!	!	!	!	!	!	!
2AA/	4A/	2f#X/	8cc\L	2.ee\	.	.	.	.	.	.	00.r	.	(2AA/	e-	.	.	.	.	.	.	8cc\L	2.ee\
.	.	.	8b\	.	.	.	.	.	.	.	.	.	.	.	.	.	.	.	.	.	8b\	.
.	4e\	.	8a\	.	.	.	.	.	.	.	.	.	.	.	.	.	.	.	.	.	8a\	.
.	.	.	8g\J	.	.	.	.	.	.	.	.	.	.	.	.	.	.	.	.	.	8g\J	.
!	!	!LO:TX:t=P:problem:brak kreski taktowej	!	!	!	!	!	!	!	!	!	!	!	!	!	!	!	!	!	!	!	!
!	!	!	!	!	!	!	!	!	!	!	!	!	!	!	!	!	!	!	!	!	!LO:SIC:v:t=custos f#	!
!	!	!	!	!	!	!	!	!	!	!	!	!	!	!	!	!	!	!	!	!	!LO:LB:g=original	!
1BB	1B	1f#Xt	2.f#Xt/	.	.	.	.	.	.	.	.	.	1BB)	.	.	.	.	.	.	.	2.f#Xt/	.
.	.	.	.	8ff#X\L	.	.	.	.	.	.	.	.	.	.	.	.	.	.	.	.	.	8ff#X\L
.	.	.	.	8ee\J	.	.	.	.	.	.	.	.	.	.	.	.	.	.	.	.	.	8ee\J
.	.	.	.	4.dd#Xt\	.	.	.	.	.	.	.	.	.	.	.	.	.	.	.	.	.	4.dd#Xt\
.	.	.	4f#/	.	.	.	.	.	.	.	.	.	.	.	.	.	.	.	.	.	4f#/	.
.	.	.	.	8ee\	.	.	.	.	.	.	.	.	.	.	.	.	.	.	.	.	.	8ee\
=50	=50	=50	=50	=50	=50	=50	=50	=50	=50	=50	=50	=50	=50	=50	=50	=50	=50	=50	=50	=50	=50	=50
2E\	2B/	1e	2g#X/	2ee\	.	.	.	.	.	.	.	.	2E\	-um,	.	.	.	.	.	.	2g#X/	2ee\
2C/	2r	.	4r	4r	.	.	.	.	.	.	.	.	4r	.	.	.	.	.	.	.	4r	4r
.	.	.	4cc\	8ee\L	.	.	.	.	.	.	.	.	4C/	Tu	.	.	.	.	.	.	4cc\	8ee\L
.	.	.	.	8ff\J	.	.	.	.	.	.	.	.	.	.	.	.	.	.	.	.	.	8ff\J
2BB/	2r	2r	4dd\	8gg\L	.	.	.	.	.	.	.	.	4BB/	es	.	.	.	.	.	.	4dd\	8gg\L
.	.	.	.	8aa\	.	.	.	.	.	.	.	.	.	.	.	.	.	.	.	.	.	8aa\
.	.	.	4dd\	8ff\	.	.	.	.	.	.	.	.	4BB/	ſa-	.	.	.	.	.	.	4dd\	8ff\
.	.	.	.	8gg\J	.	.	.	.	.	.	.	.	.	.	.	.	.	.	.	.	.	8gg\J
=51	=51	=51	=51	=51	=51	=51	=51	=51	=51	=51	=51	=51	=51	=51	=51	=51	=51	=51	=51	=51	=51	=51
!	!LO:TX:a:t=2	!LO:TX:a:t=2	!	!	!	!	!	!	!	!	!	!	!	!	!	!	!	!	!	!	!	!
2.C/	0.r	0.r	4cc\	4ee\	00.r	.	00.r	.	00.r	.	.	.	2.C/	-cer-	.	.	.	.	.	.	4cc\	4ee\
.	.	.	4e/	4g/	.	.	.	.	.	.	.	.	.	.	.	.	.	.	.	.	4e/	4g/
.	.	.	8f/L	8a/L	.	.	.	.	.	.	.	.	.	.	.	.	.	.	.	.	8f/L	8a/L
.	.	.	8e/J	8g/	.	.	.	.	.	.	.	.	.	.	.	.	.	.	.	.	8e/J	8g/
4BB/	.	.	8f/L	8a/	.	.	.	.	.	.	.	.	4BB/	-dos	.	.	.	.	.	.	8f/L	8a/
.	.	.	8g/J	8b/J	.	.	.	.	.	.	.	.	.	.	.	.	.	.	.	.	8g/J	8b/J
2AA/	.	.	4a/	8cc\L	.	.	.	.	.	.	.	.	2AA/	in	.	.	.	.	.	.	4a/	8cc\L
.	.	.	.	8b\	.	.	.	.	.	.	.	.	.	.	.	.	.	.	.	.	.	8b\
.	.	.	4a/	8cc\	.	.	.	.	.	.	.	.	.	.	.	.	.	.	.	.	4a/	8cc\
.	.	.	.	8dd\J	.	.	.	.	.	.	.	.	.	.	.	.	.	.	.	.	.	8dd\J
=52	=52	=52	=52	=52	=52	=52	=52	=52	=52	=52	=52	=52	=52	=52	=52	=52	=52	=52	=52	=52	=52	=52
2GG/	.	.	2b/	2ee\	.	.	.	.	.	.	.	.	2GG/	(ae)-	00.r	.	00.r	.	00.r	.	2b/	2ee\
1FF	.	.	4a/	2.eet\	.	.	.	.	.	.	.	.	1FF	-ter-	.	.	.	.	.	.	4a/	2.ee\
.	.	.	8b\L	.	.	.	.	.	.	.	.	.	.	.	.	.	.	.	.	.	8b\L	.
.	.	.	8cc\J	.	.	.	.	.	.	.	.	.	.	.	.	.	.	.	.	.	8cc\J	.
.	.	.	4.bt/	.	.	.	.	.	.	.	.	.	.	.	.	.	.	.	.	.	4.bt/	.
.	.	.	.	4dd\	.	.	.	.	.	.	.	.	.	.	.	.	.	.	.	.	.	4dd\
.	.	.	8a/	.	.	.	.	.	.	.	.	.	.	.	.	.	.	.	.	.	8a/	.
=53	=53	=53	=53	=53	=53	=53	=53	=53	=53	=53	=53	=53	=53	=53	=53	=53	=53	=53	=53	=53	=53	=53
!	!	!	!LO:LB:g=original	!	!	!	!	!	!	!	!	!	!	!	!	!	!	!	!	!	!	!
1.EE	2r	4r	4g#X/	4ee\	.	.	.	.	.	.	00.r	.	1EE	-num	.	.	.	.	.	.	4g#X/	4ee\
.	.	4b\	4r	4gg#X\	.	.	.	.	.	.	.	.	.	.	.	.	.	.	.	.	4r	4gg#X\
.	2g#X\	4g#X/	4gg#X\	4bb\	.	.	.	.	.	.	.	.	.	.	.	.	.	.	.	.	4gg#X\	4bb\
.	.	4e/	4bb\	4gg#X\	.	.	.	.	.	.	.	.	.	.	.	.	.	.	.	.	4bb\	4gg#X\
.	2g#X\	4b\	4gg#X\	4ee\	.	.	.	.	.	.	.	.	2EE/	ſe-	.	.	.	.	.	.	4gg#X\	4ee\
.	.	4g#X/	4ee\	4b/	.	.	.	.	.	.	.	.	.	.	.	.	.	.	.	.	4ee\	4b/
=54	=54	=54	=54	=54	=54	=54	=54	=54	=54	=54	=54	=54	=54	=54	=54	=54	=54	=54	=54	=54	=54	=54
!	!	!	!	!	!	!	!	!	!	!	!	!	!	!	!	!	!	!	!	!	!	!LO:SIC:v:t=custos a
!	!	!	!	!	!	!	!	!	!	!	!	!	!	!	!	!	!	!	!	!	!	!LO:LB:g=original
1.FF#X	2f#X\	4a\	4dd\	4a/	.	.	.	.	.	.	.	.	1FF#X	-cun-	.	.	.	.	.	.	4dd\	4a/
.	.	4dd\	4aa\	4ff#X\	.	.	.	.	.	.	.	.	.	.	.	.	.	.	.	.	4aa\	4ff#X\
.	2f#X\	4a\	4ff#X\	4aa\	.	.	.	.	.	.	.	.	.	.	.	.	.	.	.	.	4ff#X\	4aa\
.	.	4a\	4dd\	4ff#X\	.	.	.	.	.	.	.	.	.	.	.	.	.	.	.	.	4dd\	4ff#X\
.	2a\	4f#X/	4a/	4dd\	.	.	.	.	.	.	.	.	2FF#X/	-dum	.	.	.	.	.	.	4a/	4dd\
.	.	4d/	4f#X/	4a/	.	.	.	.	.	.	.	.	.	.	.	.	.	.	.	.	4f#X/	4a/
=55	=55	=55	=55	=55	=55	=55	=55	=55	=55	=55	=55	=55	=55	=55	=55	=55	=55	=55	=55	=55	=55	=55
!	!	!LO:SIC:v:t=custos e	!	!	!	!	!	!	!	!	!	!	!	!	!	!	!	!	!	!	!	!
!	!	!LO:LB:g=original	!	!LO:LB:g=original	!	!	!	!	!	!	!	!	!	!	!	!	!	!	!	!	!	!
1GG#X	2.b\	4e/	4b/	4g#X/	0.r	.	0.r	.	0.r	.	.	.	2.GG#X/	or-	.	.	.	.	.	.	4b/	4g#X/
.	.	4e/	4gg#X\	4bb\	.	.	.	.	.	.	.	.	.	.	.	.	.	.	.	.	4gg#X\	4bb\
.	.	4g#X/	4bb\	4gg#X\	.	.	.	.	.	.	.	.	.	.	.	.	.	.	.	.	4bb\	4gg#X\
.	4B/	4b\	4gg#X\	4ee\	.	.	.	.	.	.	.	.	4GG#/	-di-	.	.	.	.	.	.	4gg#X\	4ee\
!LO:LB:g=original	!	!	!	!	!	!	!	!	!	!	!	!	!	!	!	!	!	!	!	!	!	!
2AA/	2c/	2a\	4ee\	4cc\	.	.	.	.	.	.	.	.	2AA/	-nem	.	.	.	.	.	.	4ee\	4cc\
.	.	.	4cc\	4a/	.	.	.	.	.	.	.	.	.	.	.	.	.	.	.	.	4cc\	4a/
=56	=56	=56	=56	=56	=56	=56	=56	=56	=56	=56	=56	=56	=56	=56	=56	=56	=56	=56	=56	=56	=56	=56
2D/	2f\	2a\	4dd\	4b/	.	.	.	.	.	.	.	.	2D/	Mel-	0.r	.	0.r	.	0.r	.	4dd\	4b/
.	.	.	4cc\	4a/	.	.	.	.	.	.	.	.	.	.	.	.	.	.	.	.	4cc\	4a/
!	!	!LO:TX:t=P:problem:brak kreski taktowej	!	!	!	!	!	!	!	!	!	!	!	!	!	!	!	!	!	!	!	!
!	!	!	!	!	!	!	!	!	!	!	!	!	!	!	!	!	!	!	!	!	!LO:SIC:v:t=custos b	!
!	!	!	!	!	!	!	!	!	!	!	!	!	!	!	!	!	!	!	!	!	!LO:LB:g=original	!
1E	1B	1e	2.b/	2.a/	.	.	.	.	.	.	.	.	2.E\	-chi-	.	.	.	.	.	.	2.b/	2.a/
.	.	.	4b/	4g#X/	.	.	.	.	.	.	.	.	4E\	-ſe-	.	.	.	.	.	.	4b/	4g#X/
=57	=57	=57	=57	=57	=57	=57	=57	=57	=57	=57	=57	=57	=57	=57	=57	=57	=57	=57	=57	=57	=57	=57
1.AA	1.c#X;	1.e	1.a	1.a;	1.r	.	1.r	.	1.r	.	1.r	.	1.A	-dech.	.	.	.	.	.	.	1.a	1.a;
=58	=58	=58	=58	=58	=58	=58	=58	=58	=58	=58	=58	=58	=58	=58	=58	=58	=58	=58	=58	=58	=58	=58
!LO:TX:b:t=Tutti	!LO:TX:b:t=tutti	!LO:TX:b:i:t=tutti	!LO:TX:b:t=tutti	!LO:TX:b:t=tutti	!	!	!	!	!	!	!	!	!LO:TX:a:t=tutti	!	!	!	!	!	!	!	!LO:TX:b:t=tutti	!LO:TX:b:t=tutti
!	!	!	!	!	!LO:LB:g=original	!	!	!	!	!	!	!	!LO:LB:g=original	!	!	!	!	!	!	!	!	!
1.F	2.f\	2.c/	2.cc\	2.aa\	2.F\	Do-	2.A/	Do-	2.f\	Do-	2.cc\	Do-	2.F\	Do-	2.A/	Do-	2.f\	Do-	2.cc\	Do-	2.cc\	2.aa\
.	4f\	4c/	4cc\	4aa\	4F\	-mi-	4A/	-mi-	4f\	-mi-	4cc\	-mi-	4F\	-mi-	4A/	-mi-	4f\	-mi-	4cc\	-mi-	4cc\	4aa\
.	2f\	2c/	2cc\	2aa\	2F\	-nus	2A/	-nus	2f\	-nus	2cc\	-nus	2F\	-nus	2A/	-nus	2f\	-nus	2cc\	-nus	2cc\	2aa\
=59	=59	=59	=59	=59	=59	=59	=59	=59	=59	=59	=59	=59	=59	=59	=59	=59	=59	=59	=59	=59	=59	=59
!	!	!	!	!	!	!	!	!	!LO:LB:g=original	!	!	!	!	!	!LO:LB:g=original	!	!	!	!LO:LB:g=original	!	!	!
2F\	2f\	2c/	2cc\	2aa\	2F\	à	2A/	à	2f\	à	2cc\	à	2F\	à	2A/	à	2f\	à	2cc\	à	2cc\	2aa\
2D/	2f\	2d/	2b/	4ff\	2D/	dex-	2Bn\	dex-	2f\	dex-	2dd\	dex-	2D/	dex-	2B\	dex-	2f\	dex-	2dd\	dex-	2b/	4ff\
.	.	.	.	4dd\	.	.	.	.	.	.	.	.	.	.	.	.	.	.	.	.	.	4dd\
!	!	!	!	!	!	!	!LO:TX:t=P:problem:brak kreski taktowej	!	!	!	!	!	!	!	!	!	!	!	!	!	!	!
2C/	2e\	2e/	4g/	2gg\	2C/	-tris	2c\	-tris	2e\	-tris	2ee\	-tris	2C/	-tris	2c\	-tris	2e\	-tris	2een\	-tris	4g/	2gg\
.	.	.	4a/	.	.	.	.	.	.	.	.	.	.	.	.	.	.	.	.	.	4a/	.
=60	=60	=60	=60	=60	=60	=60	=60	=60	=60	=60	=60	=60	=60	=60	=60	=60	=60	=60	=60	=60	=60	=60
!LO:LB:g=original	!	!	!	!	!	!	!LO:LB:g=original	!	!	!	!LO:LB:g=original	!	!	!	!	!	!	!	!	!	!	!
1G	1g	1d	2b/	2gg\	2G\	tu-	2B\	tu-	2g\	tu-	2dd\	tu-	2G\	tu-	2B\	tu-	2g\	tu-	2dd\	tu-	2b/	2gg\
.	.	.	2b/	2gg\	2G\	-is,	2B\	-is	2g\	-is,	2dd\	-is,	2G\	-is,	2B\	-is,	2g\	-is,	2dd\	-is,	2b/	2gg\
2G\	2g\	2d/	4r	4r	4r	.	2r	.	2r	.	2r	.	4r	.	2r	.	2r	.	2r	.	4r	4r
.	.	.	4b/	4dd\	4G\	Con-	.	.	.	.	.	.	4G\	Con-	.	.	.	.	.	.	4b/	4dd\
=61	=61	=61	=61	=61	=61	=61	=61	=61	=61	=61	=61	=61	=61	=61	=61	=61	=61	=61	=61	=61	=61	=61
!	!LO:LB:g=original	!	!	!	!	!	!	!	!	!	!	!	!	!	!	!	!	!	!	!	!	!
!	!	!	!LO:LB:g=original	!	!	!	!	!	!	!	!	!	!	!	!	!	!	!	!	!	!	!
2E\	4r	4r	4ee\	4gg\	4E\	-fre-	4r	.	4r	.	4r	.	4E\	-fre-	4r	.	4r	.	4r	.	4ee\	4gg\
.	4g\	4e/	4ee\	4gg\	4E\	-git.	4c\	Con-	4g\	Con-	4ee\	Con-	4E\	-git,	4c\	Con-	4g\	Con-	4ee\	Con-	4ee\	4gg\
2F\	4f\	4c/	4r	4r	4r	.	4A/	-fre-	4f\	-fre-	4cc\	-fre-	4r	.	4A/	-fre-	4f\	-fre-	4cc\	-fre-	4r	4r
.	4f\	4cc\	4a/	4cc\	4F\	/con-	4A/	-git	4f\	-git	4cc\	-git	4F\	con-	4A/	-git	4f\	-git	4cc\	-git	4a/	4cc\
2D/	2g\	2dd\	4dd\	4ff\	4D/	-fre-	4r	.	4r	.	4r	.	4D/	-fre-	4r	.	4r	.	4r	.	4dd\	4ff\
.	.	.	4dd\	4ff\	4D/	-git/	4B\	/con-	4f\	/con-	4dd\	/con-	4D/	-git	4B\	/con-	4f\	/con-	4dd\	/con-	4dd\	4ff\
=62	=62	=62	=62	=62	=62	=62	=62	=62	=62	=62	=62	=62	=62	=62	=62	=62	=62	=62	=62	=62	=62	=62
2E\	2e\	2b\	4r	4r	4r	.	4G/	-fre-	4e\	-fre-	4b\	-fre-	4r	.	4G/	-fre-	4e\	-fre-	4b\	-fre-	4r	4r
.	.	.	4g/	4b/	4E\	in	4G/	-git/	4e\	-git/	4b\	-git/	4E\	in	4G/	-git/	4e\	-git/	4b\	-git/	4g/	4b/
2C/	4r	4r	4cc\	4ee\	4C/	di-	4r	.	4r	.	4r	.	4C/	di-	4r	.	4r	.	4r	.	4cc\	4ee\
.	4e\	4cc\	4cc\	4ee\	4C/	-e	4A/	in	4e\	in	4cc\	in	4C/	-e	4A/	in	4e\	in	4cc\	in	4cc\	4ee\
(2.F\	4c/	4a\	2cc\	2a/	2.F\	i-	4A/	di-	4c/	di-	4a\	di-	2.F\	i-	4A/	di-	4c/	di-	4a\	di-	2cc\	2a/
.	4c/	4a\	.	.	.	.	4A/	-e	4c/	-e	4a\	-e	.	.	4A/	-e	4c/	-e	4a\	-e	.	.
=63	=63	=63	=63	=63	=63	=63	=63	=63	=63	=63	=63	=63	=63	=63	=63	=63	=63	=63	=63	=63	=63	=63
!	!	!	!	!	!	!	!	!	!	!	!	!	!	!	!	!	!	!	!	!	!	!LO:SIC:v:t=custos aa
!	!	!	!	!	!	!	!	!	!	!	!	!	!	!	!	!	!	!	!	!	!	!LO:LB:g=original
.	2.f\	4cc\	2a/	4aa\	.	.	4A/	i-	4f\	i-	4cc\	i-	.	.	4A/	i-	4f\	i-	4cc\	i-	2a/	4aa\
2F.\)	.	4c/	.	4gg\	4E\	-r(ae)	4A/	-r(ae)	4f\	-r(ae)	4cc\	-r(ae)	4E\	-r(ae)	4A/	-r(ae)	4f\	-r(ae)	4cc\	-r(rae)	.	4gg\
.	.	2d/	2a/	4ff\	2D/	ſu-	1A	ſu-	2f\	ſu-	2dd\	ſu-	2D/	ſu-	2A/	ſu-	(2f\	ſu-	2dd\	ſu-	2a/	4ff\
.	4f\	.	.	4gg\	.	.	.	.	.	.	.	.	.	.	.	.	.	.	.	.	.	4gg\
2C#X/	(2e\	2e/	2cc#X\	2aa\	2C/	-(ae)	.	.	1e\	-(ae)	2ee\	-(ae)	2C/	-(ae)	2A/	-(ae)	2e\)	.	2ee\	-(ae)	2cc#X\	2aa\
=64	=64	=64	=64	=64	=64	=64	=64	=64	=64	=64	=64	=64	=64	=64	=64	=64	=64	=64	=64	=64	=64	=64
!	!	!	!	!LO:TX:t=P:problem:brak kreski taktowej	!	!	!	!	!	!	!LO:TX:t=P:problem:brak kreski taktowej	!	!	!	!	!	!	!	!LO:TX:t=P:problem:brak kreski taktowej	!	!	!LO:TX:t=P:problem:brak kreski taktowej
!	!	!LO:LB:g=original	!	!	!LO:LB:g=original	!	!	!	!	!	!	!	!	!	!	!	!LO:LB:g=original	!	!	!	!	!
1.D	2e)	1.f	2a/	1.ff	1.D	Re-	2A/	-(ae)	.	.	1.ff	re-	1.D	Re-	1.A	re-	2e\	-(ae)	1.ff	re-	2a/	1.ff
.	1d	.	1dd	.	.	.	1A	re-	4d\	Re-	.	.	.	.	.	.	4d\	Re-	.	.	1dd	.
.	.	.	.	.	.	.	.	.	4c#X/	.	.	.	.	.	.	.	4c#X/	.	.	.	.	.
.	.	.	.	.	.	.	.	.	(2d\	.	.	.	.	.	.	.	(2d\	.	.	.	.	.
=65	=65	=65	=65	=65	=65	=65	=65	=65	=65	=65	=65	=65	=65	=65	=65	=65	=65	=65	=65	=65	=65	=65
1.AA	2d\	1.e;	1.ee	1.aa	1.AA	-ges,	1.A	-ges,	2d)	.	1.ee;	-ges,	1.AA	-ges.	1.A	-ges,	2d)	.	1.ee	-ges.	1ee	1.aa
!	!	!	!	!	!	!	!	!	!LO:LB:g=original	!	!	!	!	!	!	!	!	!	!	!	!	!
.	1c#X;	.	.	.	.	.	.	.	1c#X	-ges	.	.	.	.	.	.	4c#X/	.	.	.	.	.
.	.	.	.	.	.	.	.	.	.	.	.	.	.	.	.	.	4B/	.	.	.	.	.
.	.	.	.	.	.	.	.	.	.	.	.	.	.	.	.	.	2c#/	-ges	.	.	2r	.
=66	=66	=66	=66	=66	=66	=66	=66	=66	=66	=66	=66	=66	=66	=66	=66	=66	=66	=66	=66	=66	=66	=66
!LO:TX:b:t=Baſ&colon; ſolo	!LO:TX:a:t=3	!LO:TX:a:t=3	!	!	!LO:TX:a:t=11	!	!LO:TX:a:t=11	!	!LO:TX:a:t=11	!	!LO:TX:a:t=11	!	!	!	!LO:TX:a:t=7	!	!LO:TX:a:t=6	!	!LO:TX:a:t=6	!	!	!
!	!	!	!	!	!	!	!	!	!	!	!	!	!LO:LB:g=original	!	!	!	!	!	!	!	!	!
1.A	0.r	0.r	2r	2r	00.r	.	00.r	.	00.r	.	00.r	.	2r	.	00.r	.	00.r	.	00.r	.	2r	2r
!	!	!	!LO:TX:b:i:t=Solo	!LO:TX:b:i:t=Solo	!	!	!	!	!	!	!	!	!LO:TX:a:i:t=Solo	!	!	!	!	!	!	!	!LO:TX:b:i:t=Solo	!
.	.	.	2cc\	2ee\	.	.	.	.	.	.	.	.	2A\	Ju-	.	.	.	.	.	.	2cc\	2ee\
.	.	.	2cc\	2ee\	.	.	.	.	.	.	.	.	2A\	-di-	.	.	.	.	.	.	2cc\	2ee\
=67	=67	=67	=67	=67	=67	=67	=67	=67	=67	=67	=67	=67	=67	=67	=67	=67	=67	=67	=67	=67	=67	=67
2A\	.	.	2cc\	2.ee\	.	.	.	.	.	.	.	.	2A\	-ca-	.	.	.	.	.	.	2cc\	2.ee\
4G#X\	.	.	4b/	.	.	.	.	.	.	.	.	.	4G#X\	-bit	.	.	.	.	.	.	4b/	.
4A\	.	.	4cc\	4ee\	.	.	.	.	.	.	.	.	4A\	i-	.	.	.	.	.	.	4cc\	4ee\
!	!	!	!	!	!	!	!	!	!	!	!	!	!	!	!	!	!	!	!	!	!LO:TX:t=P:problem:wysokość podpisana a h	!
2F\	.	.	4a/	2aa\	.	.	.	.	.	.	.	.	2F\	-na-	.	.	.	.	.	.	4a/	2aa\
.	.	.	4b/	.	.	.	.	.	.	.	.	.	.	.	.	.	.	.	.	.	4b/	.
=68	=68	=68	=68	=68	=68	=68	=68	=68	=68	=68	=68	=68	=68	=68	=68	=68	=68	=68	=68	=68	=68	=68
2E\	1.r	1.r	2cc\	2gg\	.	.	.	.	.	.	.	.	2E\	-ti-	.	.	.	.	.	.	2cc\	2gg\
1D	.	.	2.ccT\	2.ffT\	.	.	.	.	.	.	.	.	2.D/	-o-	.	.	.	.	.	.	2.ccT\	2.ffT\
.	.	.	4b/	4ff\	.	.	.	.	.	.	.	.	4D/	-ni-	.	.	.	.	.	.	4b/	4ff\
=69	=69	=69	=69	=69	=69	=69	=69	=69	=69	=69	=69	=69	=69	=69	=69	=69	=69	=69	=69	=69	=69	=69
!LO:SIC:v:t=custos C	!	!	!	!	!	!	!	!	!	!	!	!	!	!	!	!	!	!	!	!	!	!
!	!	!	!	!	!	!	!	!	!	!	!	!	!	!	!	!	!	!	!	!	!LO:LB:g=original	!
2C/	4r	4r	2cc\	2ee\	.	.	.	.	.	.	.	.	4C/	-bus	.	.	.	.	.	.	2cc\	2ee\
!	!LO:TX:b:i:t=Solo	!LO:TX:b:i:t=Solo	!	!	!	!	!	!	!	!	!	!	!	!	!	!	!	!	!	!	!	!
.	4e\	4g/	.	.	.	.	.	.	.	.	.	.	4C/	im-	.	.	.	.	.	.	.	.
4C/	2e\	8g\L	4r	4r	.	.	.	.	.	.	.	.	(8C\L	-ple-	.	.	.	.	.	.	4r	4r
.	.	8f\	.	.	.	.	.	.	.	.	.	.	8D\	.	.	.	.	.	.	.	.	.
4E\	.	8g\	4cc\	4ee\	.	.	.	.	.	.	.	.	8E\	.	.	.	.	.	.	.	4cc\	4ee\
.	.	8a\J	.	.	.	.	.	.	.	.	.	.	8F\J	.	.	.	.	.	.	.	.	.
2G\	2d\	4b\	8g/L	8b\L	.	.	.	.	.	.	.	.	4G\)	.	.	.	.	.	.	.	8g/L	8b\L
.	.	.	8a/	8cc\	.	.	.	.	.	.	.	.	.	.	.	.	.	.	.	.	8a/	8cc\
.	.	4b\	8b/	8dd\	.	.	.	.	.	.	.	.	4G\	-vit	.	.	.	.	.	.	8b/	8dd\
.	.	.	8cc/J	8ee\J	.	.	.	.	.	.	.	.	.	.	.	.	.	.	.	.	8cc/J	8ee\J
=70	=70	=70	=70	=70	=70	=70	=70	=70	=70	=70	=70	=70	=70	=70	=70	=70	=70	=70	=70	=70	=70	=70
!	!	!	!LO:LB:g=original	!	!	!	!	!	!	!	!	!	!	!	!	!	!	!	!	!	!	!
2D/	4r	4r	4dd\	4ff\	00.r	.	00.r	.	00.r	.	00.r	.	4r	.	0.r	.	0.r	.	0.r	.	4dd\	4ff\
.	4f\	4a\	4dd\	4ff\	.	.	.	.	.	.	.	.	4D/	im-	.	.	.	.	.	.	4dd\	4ff\
4D/	2f\	8a\L	4r	4r	.	.	.	.	.	.	.	.	(8D\L	-ple-	.	.	.	.	.	.	4r	4r
.	.	8g\	.	.	.	.	.	.	.	.	.	.	8E\	.	.	.	.	.	.	.	.	.
4F\	.	8a\	4dd\	4ff\	.	.	.	.	.	.	.	.	8F\	.	.	.	.	.	.	.	4dd\	4ff\
.	.	8b\J	.	.	.	.	.	.	.	.	.	.	8G\J	.	.	.	.	.	.	.	.	.
2A\	2e\	4cc\	8a\L	8cc\L	.	.	.	.	.	.	.	.	4A\)	.	.	.	.	.	.	.	8a\L	8cc\L
.	.	.	8b\	8dd\	.	.	.	.	.	.	.	.	.	.	.	.	.	.	.	.	8b\	8dd\
.	.	4cc\	8cc\	8ee\	.	.	.	.	.	.	.	.	4AA/	-vit	.	.	.	.	.	.	8cc\	8ee\
.	.	.	8dd\J	8ff\J	.	.	.	.	.	.	.	.	.	.	.	.	.	.	.	.	8dd\J	8ff\J
=71	=71	=71	=71	=71	=71	=71	=71	=71	=71	=71	=71	=71	=71	=71	=71	=71	=71	=71	=71	=71	=71	=71
2B-X\	2g\	2dd\	8b-X/L	8dd\L	.	.	.	.	.	.	.	.	2BB-X/	ru-	.	.	.	.	.	.	8b-X/L	8dd\L
.	.	.	8a/	8cc\	.	.	.	.	.	.	.	.	.	.	.	.	.	.	.	.	8a/	8cc\
.	.	.	8g/	8b-X\	.	.	.	.	.	.	.	.	.	.	.	.	.	.	.	.	8g/	8b-X\
.	.	.	8f/J	8a\J	.	.	.	.	.	.	.	.	.	.	.	.	.	.	.	.	8f/J	8a\J
2c\	1c	1cc	2.f/	2.gT/	.	.	.	.	.	.	.	.	1C	-i-	.	.	.	.	.	.	2.f/	2.gT/
2C/	.	.	.	.	.	.	.	.	.	.	.	.	.	.	.	.	.	.	.	.	.	.
!	!	!	!	!	!	!	!	!	!	!	!	!	!	!	!	!	!	!	!	!	!	!LO:SIC:v:t=custos f
.	.	.	4e/	4f/	.	.	.	.	.	.	.	.	.	.	.	.	.	.	.	.	4f/	4f/
=72	=72	=72	=72	=72	=72	=72	=72	=72	=72	=72	=72	=72	=72	=72	=72	=72	=72	=72	=72	=72	=72	=72
!	!	!	!	!LO:LB:g=original	!	!	!	!	!	!	!	!	!	!	!	!	!	!	!	!	!	!LO:LB:g=original
2F\	2c/	2a\	2f/	2f/	.	.	.	.	.	.	.	.	2FF/	-nas,	1.r	.	2r	.	2r	.	2f/	2f/
2FF/	2r	1r	2r	2r	.	.	.	.	.	.	.	.	2r	.	.	.	2r	.	4cc\	Con-	2r	2r
.	.	.	.	.	.	.	.	.	.	.	.	.	.	.	.	.	.	.	4b\	.	.	.
4GG/	2r	.	2r	2r	.	.	.	.	.	.	.	.	2r	.	.	.	4g\	Con-	4b-X\	-quaſ-	2r	2r
4C/	.	.	.	.	.	.	.	.	.	.	.	.	.	.	.	.	4f\	-quaſ-	8a\L	-sa-	.	.
.	.	.	.	.	.	.	.	.	.	.	.	.	.	.	.	.	.	.	8g\J	.	.	.
=73	=73	=73	=73	=73	=73	=73	=73	=73	=73	=73	=73	=73	=73	=73	=73	=73	=73	=73	=73	=73	=73	=73
!	!LO:TX:a:t=4	!LO:TX:a:t=4	!LO:TX:a:t=4	!LO:TX:a:t=4	!	!	!	!	!	!	!	!	!LO:TX:a:t=4	!	!	!	!	!	!	!	!LO:TX:a:t=4	!LO:TX:a:t=4
!	!LO:LB:g=original	!	!	!	!	!	!	!	!	!	!	!	!	!	!	!	!	!	!LO:LB:g=original	!	!	!
2F\	00.r	00.r	00.r	00.r	.	.	.	.	.	.	.	.	00.r	.	2r	.	(4f\	-sa-	(4a\	.	00.r	00.r
.	.	.	.	.	.	.	.	.	.	.	.	.	.	.	.	.	8e\L	.	4f/)	-bit	.	.
.	.	.	.	.	.	.	.	.	.	.	.	.	.	.	.	.	8d\J	.	.	.	.	.
!LO:SIC:v:t=custos C	!	!	!	!	!	!	!	!	!	!	!	!	!	!	!	!	!	!	!	!	!	!
!LO:LB:g=original	!	!	!	!	!	!	!	!	!	!	!	!	!	!	!	!	!	!	!	!	!	!
4c\	.	.	.	.	.	.	.	.	.	.	.	.	.	.	4c\	Con-	4e\)	.	4g/	Ca-	.	.
4A\	.	.	.	.	.	.	.	.	.	.	.	.	.	.	4A/	-quaſ-	4c/	-bit	4a\	-pi-	.	.
4B-X\	.	.	.	.	.	.	.	.	.	.	.	.	.	.	4B-X\	-sa-	4d\	ca-	4f/	-ta	.	.
4G\	.	.	.	.	.	.	.	.	.	.	.	.	.	.	8A/L	.	4e\	-pi-	4b-X\	in	.	.
.	.	.	.	.	.	.	.	.	.	.	.	.	.	.	8G/J	.	.	.	.	.	.	.
=74	=74	=74	=74	=74	=74	=74	=74	=74	=74	=74	=74	=74	=74	=74	=74	=74	=74	=74	=74	=74	=74	=74
!	!	!	!	!	!	!	!	!	!	!	!	!	!	!	!LO:LB:g=original	!	!	!	!	!	!	!
4A\	.	.	.	.	0.r	.	0.r	.	1.r	.	0.r	.	.	.	4A/	.	4c/	-ta	2cc\	ter-	.	.
4F\	.	.	.	.	.	.	.	.	.	.	.	.	.	.	4F/	-bit	4f\	in	.	.	.	.
2G\	.	.	.	.	.	.	.	.	.	.	.	.	.	.	4G/	Ca-	(2.d\	ter-	2b-X\	-ra,	.	.
.	.	.	.	.	.	.	.	.	.	.	.	.	.	.	4A/	-pi-	.	.	.	.	.	.
2BB-X/	.	.	.	.	.	.	.	.	.	.	.	.	.	.	4B-X\	-ta	.	.	2b-\	in	.	.
.	.	.	.	.	.	.	.	.	.	.	.	.	.	.	4c\	in	4e\	.	.	.	.	.
=75	=75	=75	=75	=75	=75	=75	=75	=75	=75	=75	=75	=75	=75	=75	=75	=75	=75	=75	=75	=75	=75	=75
1D	.	.	.	.	.	.	.	.	0.r	.	.	.	.	.	2.d\	ter-	2.f#X\)	.	2.a\	ter-	.	.
.	.	.	.	.	.	.	.	.	.	.	.	.	.	.	4d\	-ra	4g\	-ra	4a\	-ra	.	.
1C#X/	.	.	.	.	.	.	.	.	.	.	.	.	.	.	(2c#X\	mul-	1g\	mul-	(2a\	mul-	.	.
=76	=76	=76	=76	=76	=76	=76	=76	=76	=76	=76	=76	=76	=76	=76	=76	=76	=76	=76	=76	=76	=76	=76
.	.	.	.	.	1.r	.	1.r	.	.	.	1.r	.	.	.	2c#)	.	.	.	2a)	.	.	.
1D	.	.	.	.	.	.	.	.	.	.	.	.	.	.	1d	-to-	(2g\	-to-	1aT	-to-	.	.
!	!	!	!	!	!	!	!	!	!	!	!	!	!	!	!	!	!LO:TX:t=P:problem:# above	!	!	!	!	!
.	.	.	.	.	.	.	.	.	.	.	.	.	.	.	.	.	2f#X\)	.	.	.	.	.
=77	=77	=77	=77	=77	=77	=77	=77	=77	=77	=77	=77	=77	=77	=77	=77	=77	=77	=77	=77	=77	=77	=77
!	!	!	!	!	!	!	!	!	!	!	!	!	!LO:LB:g=original	!	!	!	!LO:LB:g=original	!	!	!	!	!
2GG/	2r	2r	2r	2r	2r	.	2r	.	2r	.	2r	.	2r	.	2G,/	-rum	2g\	-rum	2g/	-rum,	2r	2r
!LO:TX:b:t=Tutti	!LO:TX:b:t=tutti	!	!LO:TX:b:t=tutti	!LO:TX:b:t=tutti	!	!	!	!	!	!	!	!	!	!	!	!	!	!	!	!	!LO:TX:b:t=tutti	!
1G	2g\	2dd\	2b/	2gg\	2G\	De	2B\	De	2g\	De	2dd\	De	2G\	De	2B\	De	2g\	De	2dd\	De	2b/	2gg\
.	2g\	2dd\	2b/	2gg\	2G\	tor-	2B\	tor-	2g\	tor-	2dd\	tor-	2G\	tor-	2B\	tor-	2g\	tor-	2dd\	tor-	2b/	2gg\
=78	=78	=78	=78	=78	=78	=78	=78	=78	=78	=78	=78	=78	=78	=78	=78	=78	=78	=78	=78	=78	=78	=78
!	!	!	!	!	!	!	!LO:LB:g=original	!	!	!	!LO:LB:g=original	!	!	!	!	!	!	!	!	!	!	!
2G\	2g\	2dd\	2b/	2gg\	2G\	-ren-	2B\	-ren-	2g\	-ren-	2dd\	-ren-	2G\	-ren-	2B\	-ren-	2g\	-ren-	2dd\	-ren-	2b/	2gg\
2F\	2a\	2d/	4a/	2dd\	2F\	-te	2A/	-te	2a\	-te	2dd\	-te	2F\	-te	2A/	-te	2a\	-te	2dd\	-te	4a/	2dd\
.	.	.	4dd\	.	.	.	.	.	.	.	.	.	.	.	.	.	.	.	.	.	4dd\	.
2E\	2g\	2e/	4g/	2cc#X\	2E\	in	2c#X\	in	2g\	in	2ee\	in	2E\	in	2c#X\	in	2g\	in	2ee\	in	4g/	2cc#X\
.	.	.	4e/	.	.	.	.	.	.	.	.	.	.	.	.	.	.	.	.	.	4e/	.
=79	=79	=79	=79	=79	=79	=79	=79	=79	=79	=79	=79	=79	=79	=79	=79	=79	=79	=79	=79	=79	=79	=79
*	*	*	*	*	*	*	*	*	*col	*	*	*	*	*	*	*	*	*	*	*	*	*
1D	1f	1f	2.a/	4ff\	1D	vi-	1d	vi-	1f	Vi-	1ff	vi-	1D	vi-	1d	vi-	1f	Vi-	1ff	vi-	2.a/	4ff\
.	.	.	.	4gg\	.	.	.	.	.	.	.	.	.	.	.	.	.	.	.	.	.	4gg\
.	.	.	.	2aa\	.	.	.	.	.	.	.	.	.	.	.	.	.	.	.	.	.	2aa\
.	.	.	4b/	.	.	.	.	.	.	.	.	.	.	.	.	.	.	.	.	.	4b/	.
!	!	!LO:N:vis=2	!	!	!	!	!	!	!	!	!	!	!	!	!	!	!	!	!	!	!	!
!	!	!LO:LB:g=original	!	!	!	!	!	!	!	!	!	!	!	!	!	!	!	!	!	!	!	!
2C#X/	2a\	1e/	2cc#X\	2ee\	2C#X/	-a	2e\	-a	1a\	-a	(2ee\	-a	2C#X/	-a	2e\	-a	2a\	-a	2ee\	-a	2cc#X\	2ee\
=80	=80	=80	=80	=80	=80	=80	=80	=80	=80	=80	=80	=80	=80	=80	=80	=80	=80	=80	=80	=80	=80	=80
1.F	1.a	.	1a	2ff\	1.F	bi-	4c\	bi-	.	.	2ee)	.	1.F	bi-	(2.c\	bi-	1.a	bi-	(1ee	bi-	1a	2ff\
.	.	.	.	.	.	.	(4B\	.	.	.	.	.	.	.	.	.	.	.	.	.	.	.
.	.	2.e/	.	2cc\	.	.	2.A/	.	1a	bi-	(2ee\	bi-	.	.	.	.	.	.	.	.	.	2cc\
.	.	.	.	.	.	.	.	.	.	.	.	.	.	.	(4B\)	.	.	.	.	.	.	.
.	.	.	2dd\	2dd\	.	.	.	.	.	.	2dd\)	.	.	.	2A/)	.	.	.	2dd\)	.	2dd\	2dd\
.	.	4d/	.	.	.	.	4B\)	.	.	.	.	.	.	.	.	.	.	.	.	.	.	.
!	!	!	!LO:TX:t=P:problem:brak kreski taktowej	!	!	!	!	!	!	!	!	!	!	!	!	!	!	!	!	!	!LO:TX:t=P:problem:brak kreski taktowej	!
*	*	*	*	*	*	*	*	*	*Xcol	*	*	*	*	*	*	*	*	*	*	*	*	*
=81	=81	=81	=81	=81	=81	=81	=81	=81	=81	=81	=81	=81	=81	=81	=81	=81	=81	=81	=81	=81	=81	=81
1.E	1g#X	1e	1b	2g#X/	1E	-bet	1B	-bet	1g#X	-bet	1ee	-bet	1E	-bet	1B	-bet	1g#X	-bet	1ee	-bet	1b	2g#X/
.	.	.	.	2gg#X\	.	.	.	.	.	.	.	.	.	.	.	.	.	.	.	.	.	2gg#X\
.	2g#X\	2e/	2ee\	2bb\	2E\	prop-	2B\	prop-	2g#X\	pro-	2ee\	pro-	2E\	prop-	2B\	prop-	2g#X\	pro-	2ee\	pro-	2dd\	2bb\
=82	=82	=82	=82	=82	=82	=82	=82	=82	=82	=82	=82	=82	=82	=82	=82	=82	=82	=82	=82	=82	=82	=82
!	!	!	!	!	!	!	!	!	!	!	!	!	!	!	!LO:LB:g=original	!	!	!	!LO:LB:g=original	!	!	!
1.C#X	2.a\	2.e/	4ee\	2.aa\	2.C#X/	-te-	2.c#X\	-te-	2.a\	-pte-	2.ee\	-pte-	2.C#X/	-te-	2.c#X\	-te-	2.a\	-pte-	2.ee\	-pte-	4ee\	2.aa\
.	.	.	4dd\	.	.	.	.	.	.	.	.	.	.	.	.	.	.	.	.	.	4dd\	.
!	!	!	!LO:TX:t=P:problem:# above	!	!	!	!	!	!	!	!	!	!	!	!	!	!	!	!	!	!LO:TX:t=P:problem:# above	!
.	.	.	4cc#X\	.	.	.	.	.	.	.	.	.	.	.	.	.	.	.	.	.	4cc#X\	.
.	4a\	4e/	4b/	4aa\	4C#X/	-re-	4c#\	-re-	4a\	-re-	4ee\	-re-	4C#/	-re-	4c#\	-re-	4a\	-re-	4ee\	-re-	4b/	4aa\
.	2a\	2e/	(2.a/	2aa\	2C#/	-a	2c#\	-a	2a\	-a	2ee\	-a	2C#/	-a	2c#\	-a	2a\	-a	2ee\	-a	2.a/	2aa\
=83	=83	=83	=83	=83	=83	=83	=83	=83	=83	=83	=83	=83	=83	=83	=83	=83	=83	=83	=83	=83	=83	=83
!	!	!	!	!	!LO:SIC:v:t=custos D	!	!	!	!	!	!	!	!	!	!	!	!	!	!	!	!	!
!	!	!	!	!	!LO:LB:g=original	!	!	!	!	!	!	!	!	!	!	!	!	!	!	!	!	!
1D	1a	1d	.	2.ff\	2.D/	ex-	1A	ex-	1a	ex-	1dd	ex-	2.D/	ex-	1A	ex-	1a	ex-	1dd	ex-	.	2.ff\
!	!	!	!LO:LB:g=original	!	!	!	!	!	!	!	!	!	!	!	!	!	!	!	!	!	!	!
.	.	.	4g/)	.	.	.	.	.	.	.	.	.	.	.	.	.	.	.	.	.	4g/	.
.	.	.	4f/	.	.	.	.	.	.	.	.	.	.	.	.	.	.	.	.	.	4f/	.
.	.	.	4e/	4gg\	4E\	-al-	.	.	.	.	.	.	4E\	-al-	.	.	.	.	.	.	4e/	4gg\
!	!	!LO:TX:t=P:problem:brak kreski taktowej	!	!	!	!	!	!	!	!	!	!	!	!	!	!	!	!	!	!	!	!
!	!	!	!	!	!	!	!	!	!	!	!	!	!	!	!	!	!	!	!	!	!LO:SIC:v:t=custos d	!
!	!	!	!	!	!	!	!	!	!	!	!	!	!	!	!	!	!	!	!	!	!LO:LB:g=original	!
2D/	2a\	2d/	2d/	4aa\	4F\	-ta-	2A/	-al-	2a\	-al-	2dd\	-al-	4F\	-ta-	2A/	-al-	2a\	-al-	2dd\	-al-	2d/	4aa\
.	.	.	.	4ff\	4D/	-bit,	.	.	.	.	.	.	4D/	-bit,	.	.	.	.	.	.	.	4ff\
=84	=84	=84	=84	=84	=84	=84	=84	=84	=84	=84	=84	=84	=84	=84	=84	=84	=84	=84	=84	=84	=84	=84
!	!	!	!	!LO:SIC:v:t=custos bb-	!	!	!	!	!	!	!	!	!	!	!	!	!	!	!	!	!	!
!	!	!	!	!	!	!	!	!	!LO:SIC:v:t=custos g	!	!	!	!	!	!	!	!	!	!	!	!	!
!	!	!	!	!LO:LB:g=original	!	!	!	!	!LO:LB:g=original	!	!	!	!	!	!	!	!	!	!	!	!	!
1GG	1g	1d	2d/	2.bb-X\	2.G\	ex-	4B-X\	-ta-	(2.g,\	-ta-	1.dd	-ta-	2.G\	ex-	1B-X	-ta-	1g	-ta-	1dd	-ta-	2d/	2.bb-X\
.	.	.	.	.	.	.	4A\	.	.	.	.	.	.	.	.	.	.	.	.	.	.	.
.	.	.	2dd\	.	.	.	(4B-X\	.	.	.	.	.	.	.	.	.	.	.	.	.	2dd\	.
.	.	.	.	4bb-\	4G\	-al-	4c\	.	8f\L)	.	.	.	4G\	-al-	.	.	.	.	.	.	.	4bb-\
.	.	.	.	.	.	.	.	.	(8g\J	.	.	.	.	.	.	.	.	.	.	.	.	.
2FF/	2a\	2d/	2ff\	2aa\	2F\	-ta-	2d\)	.	2a\)	.	.	.	2F\	-ta-	2d\	-bit	2a\	-bit	2dd\	-bit	2ff\	2aa\
=85	=85	=85	=85	=85	=85	=85	=85	=85	=85	=85	=85	=85	=85	=85	=85	=85	=85	=85	=85	=85	=85	=85
!	!	!	!	!	!	!	!	!	!	!	!LO:TX:t=P:problem:brak kreski taktowej	!	!	!	!	!	!	!	!LO:TX:t=P:problem:brak kreski taktowej	!	!	!
!	!	!	!	!	!	!	!LO:LB:g=original	!	!	!	!	!	!	!	!	!	!	!	!	!	!	!
2GG/	2g\	2e/	2ee\	2bb-X\	2G\	-bit	2d\	.	2g\	-bit	2ee\	-bit	2G\	-bit	(1d	Ca-	(2g\	Ca-	1.ee	Ca-	2ee\	2bb-X\
1AA	1e	1et	2.ee\	1aa	(2A\	Ca-	2.dT\	-bit	1e	Ca-	1eet	Ca-	1A	Ca-	.	.	1e)	.	.	.	2.ee\	1aa
.	.	.	.	.	2AA/)	.	.	.	.	.	.	.	.	.	2c#X\)	.	.	.	.	.	.	.
!	!	!	!LO:TX:t=P:problem:brak kreski taktowej	!	!	!	!	!	!	!	!	!	!	!	!	!	!	!	!	!	!	!
.	.	.	4a/	.	.	.	4c#X\	Ca-	.	.	.	.	.	.	.	.	.	.	.	.	4a/	.
=86	=86	=86	=86	=86	=86	=86	=86	=86	=86	=86	=86	=86	=86	=86	=86	=86	=86	=86	=86	=86	=86	=86
!	!	!	!	!	!	!	!	!	!	!	!LO:TX:t=P:problem:brak kreski taktowej	!	!	!	!	!	!	!	!	!	!	!
1.D	1.f#X	1.d;	1.a	1.aa	1.D	-put,	1.d	-put,	1.f#X	-put,	1.dd	-put.	1.D	-put.	1.d;	-put.	1.f#X	-put.	1.dd	-put.	1.a	1.aa
*clefC4	*	*	*	*	*	*	*	*	*	*	*	*	*	*	*	*	*	*	*	*	*	*
=87	=87	=87	=87	=87	=87	=87	=87	=87	=87	=87	=87	=87	=87	=87	=87	=87	=87	=87	=87	=87	=87	=87
!LO:TX:b:i:t=Gloria	!LO:TX:a:t=16	!LO:TX:a:t=16	!LO:TX:a:t=10	!LO:TX:a:t=10	!LO:TX:a:t=16	!	!LO:TX:a:t=16	!	!LO:TX:a:t=16	!	!LO:TX:a:t=16	!	!LO:TX:a:t=10	!	!	!	!	!	!LO:TX:a:t=a3	!	!LO:TX:a:t=10	!LO:TX:a:t=10
!	!	!	!	!	!	!	!	!	!	!	!LO:LB:g=original	!	!LO:LB:g=original	!	!	!	!	!	!	!	!	!
1d	00.r	00.r	00.r	00.r	00.r	.	00.r	.	00.r	.	00.r	.	00.r	.	2.d\	Glo-	2.d\	Glo-	2.f/	Glo-	00.r	00.r
.	.	.	.	.	.	.	.	.	.	.	.	.	.	.	4d\	-ri-	4e\	-ri-	4g/	-ri-	.	.
2d\	.	.	.	.	.	.	.	.	.	.	.	.	.	.	2d\	-a	2f-X\	-a	2a\	-a	.	.
=88	=88	=88	=88	=88	=88	=88	=88	=88	=88	=88	=88	=88	=88	=88	=88	=88	=88	=88	=88	=88	=88	=88
!	!	!	!	!	!	!	!	!	!	!	!	!	!	!	!	!	!LO:LB:g=original	!	!	!	!	!
1c#X	.	.	.	.	.	.	.	.	.	.	.	.	.	.	2.c#X\	/glo-	2.e\	/glo-	2.a\	/glo-	.	.
.	.	.	.	.	.	.	.	.	.	.	.	.	.	.	4c#\	-ri-	4e\	-ri-	4a\	-ri-	.	.
2d\	.	.	.	.	.	.	.	.	.	.	.	.	.	.	2d\	-a/	2f\	-a/	2a\	-a/	.	.
=89	=89	=89	=89	=89	=89	=89	=89	=89	=89	=89	=89	=89	=89	=89	=89	=89	=89	=89	=89	=89	=89	=89
!LO:SIC:v:t=custos G	!	!	!	!	!	!	!	!	!	!	!	!	!	!	!	!	!	!	!	!	!	!
!LO:LB:g=original	!	!	!	!	!	!	!	!	!	!	!	!	!	!	!	!	!	!	!	!	!	!
1G	.	.	.	.	.	.	.	.	.	.	.	.	.	.	2G/	pa-	2g\	pa-	2b-X\	pa-	.	.
.	.	.	.	.	.	.	.	.	.	.	.	.	.	.	2G/	-tri	2g\	-tri	2b-\	-tri	.	.
!LO:TX:t=P:problem:brak kreski taktowej	!	!	!	!	!	!	!	!	!	!	!	!	!	!	!	!	!	!	!	!	!	!
1A\	.	.	.	.	.	.	.	.	.	.	.	.	.	.	1A/	et	2.f\	et	2a\	et	.	.
=90	=90	=90	=90	=90	=90	=90	=90	=90	=90	=90	=90	=90	=90	=90	=90	=90	=90	=90	=90	=90	=90	=90
.	.	.	.	.	.	.	.	.	.	.	.	.	.	.	.	.	.	.	1a	Fi-	.	.
.	.	.	.	.	.	.	.	.	.	.	.	.	.	.	.	.	4e\)	Fi-	.	.	.	.
1B-X	.	.	.	.	.	.	.	.	.	.	.	.	.	.	2.B-X\	Fi-	2.d\	.	.	.	.	.
.	.	.	.	.	.	.	.	.	.	.	.	.	.	.	.	.	.	.	2g/	-li-	.	.
.	.	.	.	.	.	.	.	.	.	.	.	.	.	.	4B-\	-li-	4d\	.	.	.	.	.
=91	=91	=91	=91	=91	=91	=91	=91	=91	=91	=91	=91	=91	=91	=91	=91	=91	=91	=91	=91	=91	=91	=91
!	!	!	!	!	!	!	!	!	!	!	!	!	!	!	!LO:LB:g=original	!	!	!	!	!	!	!
1.A	00.r	00.r	00.r	00.r	00.r	.	00.r	.	00.r	.	00.r	.	00.r	.	2A/	-o	2c#X/	-o,	2a\	-o	00.r	00.r
.	.	.	.	.	.	.	.	.	.	.	.	.	.	.	2r	.	2a\	et	2r	.	.	.
!	!	!	!	!	!	!	!	!	!	!	!	!	!	!	!	!	!	!	!LO:TX:t=P:problem:brak kreski taktowej	!	!	!
.	.	.	.	.	.	.	.	.	.	.	.	.	.	.	2r	.	2g\	ſpi-	2r	.	.	.
=92	=92	=92	=92	=92	=92	=92	=92	=92	=92	=92	=92	=92	=92	=92	=92	=92	=92	=92	=92	=92	=92	=92
1d	.	.	.	.	.	.	.	.	.	.	.	.	.	.	2r	.	2.f\	-ri-	1.r	.	.	.
.	.	.	.	.	.	.	.	.	.	.	.	.	.	.	2d\	et	.	.	.	.	.	.
.	.	.	.	.	.	.	.	.	.	.	.	.	.	.	.	.	(4g\	.	.	.	.	.
2c\	.	.	.	.	.	.	.	.	.	.	.	.	.	.	2c\	ſpi-	4e\	.	.	.	.	.
.	.	.	.	.	.	.	.	.	.	.	.	.	.	.	.	.	4f\	.	.	.	.	.
=93	=93	=93	=93	=93	=93	=93	=93	=93	=93	=93	=93	=93	=93	=93	=93	=93	=93	=93	=93	=93	=93	=93
1B-X	.	.	.	.	.	.	.	.	.	.	.	.	.	.	2.B-X\	-ri-	2.d\)	.	2r	.	.	.
.	.	.	.	.	.	.	.	.	.	.	.	.	.	.	.	.	.	.	2dd\	et	.	.
.	.	.	.	.	.	.	.	.	.	.	.	.	.	.	4c\	.	4d\	-tu-	.	.	.	.
2A/	.	.	.	.	.	.	.	.	.	.	.	.	.	.	4A/	.	2e\	-i	2cc\	ſpi-	.	.
.	.	.	.	.	.	.	.	.	.	.	.	.	.	.	(4B-X\	.	.	.	.	.	.	.
=94	=94	=94	=94	=94	=94	=94	=94	=94	=94	=94	=94	=94	=94	=94	=94	=94	=94	=94	=94	=94	=94	=94
!	!	!	!	!	!	!	!	!	!	!	!	!	!	!	!	!	!	!	!LO:LB:g=original	!	!	!
1G	.	.	.	.	.	.	.	.	.	.	.	.	.	.	2.G/)	.	2r	.	2.b-X\	-ri-	.	.
.	.	.	.	.	.	.	.	.	.	.	.	.	.	.	.	.	2g\	et	.	.	.	.
.	.	.	.	.	.	.	.	.	.	.	.	.	.	.	4G/	-tu-	.	.	4cc\	.	.	.
2A/	.	.	.	.	.	.	.	.	.	.	.	.	.	.	2A/	-i	2f\	ſpi-	(4a\	.	.	.
.	.	.	.	.	.	.	.	.	.	.	.	.	.	.	.	.	.	.	4b-X\	.	.	.
=95	=95	=95	=95	=95	=95	=95	=95	=95	=95	=95	=95	=95	=95	=95	=95	=95	=95	=95	=95	=95	=95	=95
*	*	*	*	*	*	*	*	*	*	*	*	*	*	*	*col	*	*	*	*	*	*	*
1c	00.r	00.r	0.r	0.r	00.r	.	00.r	.	00.r	.	00.r	.	0.r	.	(1c	ſan-	2.e\	-ri-	2.g/)	.	0.r	0.r
.	.	.	.	.	.	.	.	.	.	.	.	.	.	.	.	.	4e\	-tu-	4g/	-tu-	.	.
!LO:TX:t=P:problem:brak kreski taktowej	!	!	!	!	!	!	!	!	!	!	!	!	!	!	!	!	!	!	!	!	!	!
1B-X\	.	.	.	.	.	.	.	.	.	.	.	.	.	.	1B-X\	.	(2f\	-i	1g/	-i	.	.
=96	=96	=96	=96	=96	=96	=96	=96	=96	=96	=96	=96	=96	=96	=96	=96	=96	=96	=96	=96	=96	=96	=96
.	.	.	.	.	.	.	.	.	.	.	.	.	.	.	.	.	2f)	.	.	.	.	.
1c	.	.	.	.	.	.	.	.	.	.	.	.	.	.	1c)	.	(2f\	ſan-	1gT	ſan-	.	.
.	.	.	.	.	.	.	.	.	.	.	.	.	.	.	.	.	2e\)	.	.	.	.	.
*	*	*	*	*	*	*	*	*	*	*	*	*	*	*	*Xcol	*	*	*	*	*	*	*
=97	=97	=97	=97	=97	=97	=97	=97	=97	=97	=97	=97	=97	=97	=97	=97	=97	=97	=97	=97	=97	=97	=97
2c\	.	.	2r	2r	.	.	.	.	.	.	.	.	2r	.	2F/	-cto	2c\	-cto	2f/	-cto,	2r	2r
*clefF4	*	*	*	*	*	*	*	*	*	*	*	*	*	*	*	*	*	*	*	*	*	*
!LO:TX:b:t=Baſ&colon; ſolo	!	!	!LO:TX:b:i:t=Solo	!LO:TX:b:i:t=Solo	!	!	!	!	!	!	!	!	!LO:TX:a:i:t=Solo	!	!	!	!	!	!	!	!LO:TX:b:i:t=Solo	!LO:TX:b:i:t=Solo
!	!	!	!	!	!	!	!	!	!	!	!	!	!	!	!	!	!	!	!	!	!	!LO:SIC:v:t=custos cc
!	!	!	!	!	!	!	!	!	!	!	!	!	!	!	!	!	!	!	!	!	!	!LO:LB:g=original
2F\	.	.	4a/	4cc\	.	.	.	.	.	.	.	.	2F\	Si-	2r	.	2r	.	2r	.	4a/	4cc\
.	.	.	4b/	4dd\	.	.	.	.	.	.	.	.	.	.	.	.	.	.	.	.	4b/	4dd\
!	!	!	!	!	!	!	!	!	!	!	!	!	!	!	!	!	!	!	!LO:TX:t=P:problem:brak kreski taktowej	!	!	!
2E\	.	.	4cc\	4ee\	.	.	.	.	.	.	.	.	2E\	-cut	2r	.	2r	.	2r	.	4cc/	4ee\
.	.	.	4b/	4dd\	.	.	.	.	.	.	.	.	.	.	.	.	.	.	.	.	4b/	4dd\
=98	=98	=98	=98	=98	=98	=98	=98	=98	=98	=98	=98	=98	=98	=98	=98	=98	=98	=98	=98	=98	=98	=98
!	!	!	!	!	!	!	!	!	!	!	!	!	!	!	!LO:TX:a:t=5	!	!LO:TX:a:t=5	!	!LO:TX:a:t=5	!	!	!
!	!	!	!	!	!	!	!	!	!	!	!	!	!	!	!	!	!LO:LB:g=original	!	!	!	!	!
2.F\	.	.	2a/	2.cc\	.	.	.	.	.	.	.	.	2.F\	e-	00.r	.	00.r	.	00.r	.	2a/	2.cc\
.	.	.	2.a/	.	.	.	.	.	.	.	.	.	.	.	.	.	.	.	.	.	2.a/	.
4C#X/	.	.	.	4ee\	.	.	.	.	.	.	.	.	4C#X/	-rat	.	.	.	.	.	.	.	4ee\
2D/	.	.	.	4ff\	.	.	.	.	.	.	.	.	2D/	in	.	.	.	.	.	.	.	4ff\
.	.	.	4b/	4gg\	.	.	.	.	.	.	.	.	.	.	.	.	.	.	.	.	4b/	4gg\
=99	=99	=99	=99	=99	=99	=99	=99	=99	=99	=99	=99	=99	=99	=99	=99	=99	=99	=99	=99	=99	=99	=99
!	!	!	!LO:TX:t=P:problem:# above	!	!	!	!	!	!	!	!	!	!	!	!	!	!	!	!	!	!LO:TX:t=P:problem:# above	!
2AA/	00.r	00.r	4cc#X\	2aa\	00.r	.	00.r	.	00.r	.	00.r	.	2AA/	prin-	.	.	.	.	.	.	4cc#X\	2aa\
.	.	.	8dd\L	.	.	.	.	.	.	.	.	.	.	.	.	.	.	.	.	.	8dd\L	.
.	.	.	8ee\J	.	.	.	.	.	.	.	.	.	.	.	.	.	.	.	.	.	8ee\J	.
1BB-X	.	.	2.dd\	2.aaT\	.	.	.	.	.	.	.	.	2.BB-X/	-ci-	.	.	.	.	.	.	2.dd\	2.aa\
.	.	.	4dd\	4gg\	.	.	.	.	.	.	.	.	4BB-/	-pi-	.	.	.	.	.	.	4dd\	4gg\
=100	=100	=100	=100	=100	=100	=100	=100	=100	=100	=100	=100	=100	=100	=100	=100	=100	=100	=100	=100	=100	=100	=100
!	!	!	!LO:TX:t=P:problem:# above	!	!	!	!	!	!	!	!	!	!	!	!	!	!	!	!	!	!LO:TX:t=P:problem:# above	!
2.AA/	.	.	2.cc#X\	2.aa\	.	.	.	.	.	.	.	.	2.AA/	-o	.	.	.	.	.	.	2.cc#X\	2.aa\
4AA/	.	.	4cc#\	4aa\	.	.	.	.	.	.	.	.	4AA/	et	.	.	.	.	.	.	4cc#\	4aa\
4BBn/	.	.	4dd\	2gg\	.	.	.	.	.	.	.	.	4BB/	nunc	.	.	.	.	.	.	4dd\	2gg\
4C#X/	.	.	4ee\	.	.	.	.	.	.	.	.	.	4C#X/	et	.	.	.	.	.	.	4ee\	.
=101	=101	=101	=101	=101	=101	=101	=101	=101	=101	=101	=101	=101	=101	=101	=101	=101	=101	=101	=101	=101	=101	=101
2D/	.	.	4a/	4ff\	.	.	.	.	.	.	.	.	(2D/	ſem-	.	.	.	.	.	.	4a/	4ff\
.	.	.	8g/L	8ee\L	.	.	.	.	.	.	.	.	.	.	.	.	.	.	.	.	8g/L	8ee\L
.	.	.	8a/J	8ff\J	.	.	.	.	.	.	.	.	.	.	.	.	.	.	.	.	8a/J	8ff\J
2G\	.	.	4b-X/	4gg\	.	.	.	.	.	.	.	.	2G\)	.	.	.	.	.	.	.	4b-X/	4gg\
.	.	.	8a/L	8ff\L	.	.	.	.	.	.	.	.	.	.	.	.	.	.	.	.	8a/L	8ff\L
.	.	.	8b-X/J	8gg\J	.	.	.	.	.	.	.	.	.	.	.	.	.	.	.	.	8b-X/J	8gg\J
!LO:N:vis=2	!	!	!	!	!	!	!	!	!	!	!	!	!	!	!	!	!	!	!	!	!	!
(1F\	.	.	4a/	2.aa\	.	.	.	.	.	.	.	.	2F\	-per,	.	.	.	.	.	.	4a/	2.aa\
.	.	.	4dd\	.	.	.	.	.	.	.	.	.	.	.	.	.	.	.	.	.	4dd\	.
=102	=102	=102	=102	=102	=102	=102	=102	=102	=102	=102	=102	=102	=102	=102	=102	=102	=102	=102	=102	=102	=102	=102
!	!	!	!LO:LB:g=original	!	!	!	!	!	!	!	!	!	!	!	!	!	!	!	!	!	!	!
.	.	.	2.dd\	.	.	.	.	.	.	.	.	.	2F\	et	1.r	.	1.r	.	1.r	.	2.dd\	.
.	.	.	.	8gg\L	.	.	.	.	.	.	.	.	.	.	.	.	.	.	.	.	.	8gg\L
.	.	.	.	8ff\J	.	.	.	.	.	.	.	.	.	.	.	.	.	.	.	.	.	8ff\J
!LO:N:vis=2	!	!	!	!	!	!	!	!	!	!	!	!	!	!	!	!	!	!	!	!	!	!
1F))	.	.	.	2.ggT\	.	.	.	.	.	.	.	.	1E	ſem-	.	.	.	.	.	.	.	2.ggT\
!	!	!	!LO:TX:t=P:problem:# above	!	!	!	!	!	!	!	!	!	!	!	!	!	!	!	!	!	!LO:TX:t=P:problem:# above	!
.	.	.	8cc#X\L	.	.	.	.	.	.	.	.	.	.	.	.	.	.	.	.	.	8cc#X\L	.
.	.	.	8b\J	.	.	.	.	.	.	.	.	.	.	.	.	.	.	.	.	.	8b\J	.
!	!	!	!LO:TX:t=P:problem:# above	!	!	!	!	!	!	!	!	!	!	!	!	!	!	!	!	!	!LO:TX:t=P:problem:# above	!
.	.	.	2cc#X\	.	.	.	.	.	.	.	.	.	.	.	.	.	.	.	.	.	2cc#X\	.
.	.	.	.	4gg\	.	.	.	.	.	.	.	.	.	.	.	.	.	.	.	.	.	4gg\
=103	=103	=103	=103	=103	=103	=103	=103	=103	=103	=103	=103	=103	=103	=103	=103	=103	=103	=103	=103	=103	=103	=103
!	!	!	!	!LO:TX:b:t=tutti,	!	!	!	!	!	!	!	!	!	!	!	!	!	!	!	!	!	!LO:TX:b:t=tutti
!	!LO:LB:g=original	!	!	!LO:LB:g=original	!	!	!	!	!	!	!	!	!	!	!	!	!	!	!	!	!	!
2D/	2r	2r	2dd\	2ff\	2r	.	2r	.	2r	.	2r	.	2D/	-per,	2r	.	2r	.	2r	.	1.ryy	2ff\
!	!LO:TX:b:t=tutti	!LO:TX:b:i:t=tutti	!LO:TX:b:t=tutti	!	!	!	!	!	!	!	!	!	!	!	!	!	!	!	!	!	!	!
2D/	2f\	2a\	2a/	2ff\	2D/	et	2d\	et	2f\	et	2a\	et	2D/	et	2d\	et	2f\	et	2a\	et	.	2ff\
!LO:TX:b:t=tutti	!	!	!	!	!	!	!	!	!	!	!	!	!	!	!	!	!	!	!	!	!	!
!LO:SIC:v:t=custos C	!	!	!	!	!	!	!	!	!	!	!	!	!	!	!	!	!	!	!	!	!	!
!LO:LB:g=original	!	!	!	!	!	!	!	!	!	!	!	!	!	!	!	!	!	!	!	!	!	!
2C#X/	2e\	2a\	2cc#X\	2aa\	2C#X/	in	2e\	in	2e\	in	2a\	in	2C#X/	in	2e\	in	2e\	in	2a\	in	.	2aa\
=104	=104	=104	=104	=104	=104	=104	=104	=104	=104	=104	=104	=104	=104	=104	=104	=104	=104	=104	=104	=104	=104	=104
1D	2f\	2a\	2.a/	2.ff\	2D/	ſe-	2d\	ſe-	2f\	ſe-	2a\	ſe-	2D/	ſe-	2d\	ſe-	2f\	ſe-	2a\	ſe-	2.a/	2.ff\
.	4f\	4a\	.	.	4D/	-cu-	4d\	-cu-	4f\	-cu-	4a\	-cu-	4D/	-cu-	4d\	-cu-	4f\	-cu-	4a\	-cu-	.	.
.	4f\	4a\	4a/	4gg\	4D/	-la	4d\	-la	4f\	-la	4a\	-la	4D/	-la	4d\	-la	4f\	-la	4a\	-la	4a/	4gg\
2AA/	(2f\	2cc\	2a/	2aa\	2AA/	ſe-	2c\	ſe-	2f\	ſe-	2cc\	ſe-	2AA/	ſe-	2c\	ſe-	2f\	ſe-	2cc\	ſe-	2a/	2aa\
=105	=105	=105	=105	=105	=105	=105	=105	=105	=105	=105	=105	=105	=105	=105	=105	=105	=105	=105	=105	=105	=105	=105
!	!	!	!	!	!	!	!	!	!	!	!	!	!	!	!	!	!	!	!	!	!LO:SIC:v:t=custos dd	!
!	!	!	!	!	!	!	!	!	!	!	!	!	!LO:LB:g=original	!	!	!	!	!	!	!	!LO:LB:g=original	!
2BB-X/	2f)	2dd\	2dd\	2gg\	2BB-X/	-cu-	(4B-X\	-cu-	2f\	-cu-	2dd\	-cu-	2BB-X/	-cu-	4B-X\	-cu-	2f\	-cu-	2dd\	-cu-	2dd\	2gg\
.	.	.	.	.	.	.	4A\)	-lo-	.	.	.	.	.	.	(4A\	-lo-	.	.	.	.	.	.
1C	2f\	1cc	2g/	1gg	1C	-lo-	1GT	.	(2f\	-lo-	1cc	-lo-	2.C/	-lo-	1G)	.	(2f\	-lo-	1cc	-lo-	2g/	1gg
.	2e\	.	4cc\	.	.	.	.	.	2e\)	.	.	.	.	.	.	.	2e\)	.	.	.	4cc\	.
.	.	.	4dd\	.	.	.	.	.	.	.	.	.	4C/	-rum	.	.	.	.	.	.	4dd\	.
=106	=106	=106	=106	=106	=106	=106	=106	=106	=106	=106	=106	=106	=106	=106	=106	=106	=106	=106	=106	=106	=106	=106
!	!	!LO:LB:g=original	!	!	!LO:LB:g=original	!	!	!	!	!	!	!	!	!	!LO:LB:g=original	!	!	!	!	!	!	!
2FF/	2f\	2cc\	4cc\	1.aa	2FF/	-rum	2F/	-rum	2f\	-rum	2cc\	-rum	2FF/	.	2F/	-rum	2f\	-rum	2cc\	-rum	4cc\	1.aa
.	.	.	4b-X/	.	.	.	.	.	.	.	.	.	.	.	.	.	.	.	.	.	4b-X/	.
2.F\	2f\	2cc\	2a/	.	4F\	A-	(4A/	A-	2f\	A-	2cc\	A-	(4F\	A-	4A/	A-	2f\	A-	2cc\	A-	2a/	.
.	.	.	.	.	4G\	.	4B-X/	.	.	.	.	.	4G\)	.	4B-X\	.	.	.	.	.	.	.
.	2f\	2cc\	2a/	.	4F\	.	4A/	.	2f\	-men.	2cc\	-men	(4F\	.	4A/	.	2f\	-men,	2cc\	-men	2a/	.
4E\	.	.	.	.	4E\	.	4G/)	.	.	.	.	.	4E\)	.	4G/	.	.	.	.	.	.	.
=107	=107	=107	=107	=107	=107	=107	=107	=107	=107	=107	=107	=107	=107	=107	=107	=107	=107	=107	=107	=107	=107	=107
!	!	!	!	!	!	!	!LO:SIC:v:t=custos F	!	!	!	!	!	!	!	!	!	!	!	!	!	!	!
!	!	!	!	!	!	!	!LO:LB:g=original	!	!LO:LB:g=original	!	!	!	!	!	!	!	!	!	!LO:LB:g=original	!	!	!
2D/	2.f\	1dd	1a	4aa\	2.D/	.	2F/	.	2.f\	A-	1dd	A-	2.D/	.	2F/	.	2.f\	A-	1dd	A-	1a	4aa\
.	.	.	.	4gg\	.	.	.	.	.	.	.	.	.	.	.	.	.	.	.	.	.	4gg\
!	!	!	!	!	!	!	!	!	!	!	!	!	!	!	!	!	!	!	!	!	!	!LO:SIC:v:t=custos ff
!	!	!	!	!	!	!	!	!	!	!	!	!	!	!	!	!	!	!	!	!	!	!LO:LB:g=original
2.D/	.	.	.	2ff\	.	.	1A	.	.	.	.	.	.	.	1A	.	.	.	.	.	.	2ff\
.	4g\	.	.	.	4E-X\	.	.	.	(4g\	.	.	.	4E-X\	.	.	.	4g\	.	.	.	.	.
.	4f\	2dd\	2dd\	2aa\	4D/	.	.	.	4f\	.	2dd\	-men	4D/	.	.	.	4f\	.	2dd\	-men	2dd\	2aa\
!LO:SIC:v:t=custos C	!	!	!	!	!	!	!	!	!	!	!	!	!	!	!	!	!	!	!	!	!	!
4C/	4e-X\	.	.	.	4C/	.	.	.	4e-X\	.	.	.	4C/	.	.	.	4e-X\	.	.	.	.	.
=108	=108	=108	=108	=108	=108	=108	=108	=108	=108	=108	=108	=108	=108	=108	=108	=108	=108	=108	=108	=108	=108	=108
2BB-X/	1d	2.dd\	4dd\	4dd\	2.BB-X/	.	(2B-X\	-men	1c)	.	2.dd\	A-	2.BB-X/	.	2B-X\	-men	1d	.	2.dd\	A-	4dd\	4dd\
.	.	.	4ee\	4cc\	.	.	.	.	.	.	.	.	.	.	.	.	.	.	.	.	4ee\	4cc\
2.BB-X/	.	.	2ff\	2b-X/	.	.	2F/)	A-	.	.	.	.	.	.	2F/	A-	.	.	.	.	2ff\	2b-X/
.	.	4ee-X\	.	.	4C/	.	.	.	.	.	4ee-X\	.	4C/	.	.	.	.	.	4ee-X\	.	.	.
.	2d\	4dd\	2ff\	2b-/	4BB-X/	.	2F/	-men	2d\	-men	4dd\	.	4BB-X/	.	2F/	-men	2d\	-men,	4dd\	.	2ff\	2b-/
4AA/	.	4cc\	.	.	4AA/	.	.	.	.	.	4cc\	.	4AA/	.	.	.	.	.	4cc\	.	.	.
=109	=109	=109	=109	=109	=109	=109	=109	=109	=109	=109	=109	=109	=109	=109	=109	=109	=109	=109	=109	=109	=109	=109
!	!	!	!	!	!	!	!	!	!	!	!LO:LB:g=original	!	!	!	!	!	!	!	!	!	!	!
1GG	1d	1b-X	2.b-X/	2.dd\	1GG	.	1G	A-	1d	/A-	(1b-X	.	1GG	.	1G	A-	1d	/A-	1b-X	.	2.b-X/	2.dd\
.	.	.	4cc\	4ee\	.	.	.	.	.	.	.	.	.	.	.	.	.	.	.	.	4cc\	4ee\
2FF#X/	2f#X\	2a\	2dd\	4dd\	2FF#X/	-men	1A\	.	2f#X\	-men/	1a\	-men,	2FF#X/	-men,	1A\	.	2f#X\	-men	2a\	-men,	2dd\	4dd\
.	.	.	.	4cc\	.	.	.	.	.	.	.	.	.	.	.	.	.	.	.	.	.	4cc\
=110	=110	=110	=110	=110	=110	=110	=110	=110	=110	=110	=110	=110	=110	=110	=110	=110	=110	=110	=110	=110	=110	=110
1.GG	1d	1.b-X	2dd\	2b-X/	1.GG	A-	.	.	1.d	A-	.	.	1.GG	A-	.	.	1d	A-	1.b-X	A-	2dd\	2b-X/
.	.	.	1g	1dd	.	.	4G/	.	.	.	1b-X)	A-	.	.	4G/	.	.	.	.	.	1g	1dd
.	.	.	.	.	.	.	4F/	.	.	.	.	.	.	.	4F/	.	.	.	.	.	.	.
.	2d\	.	.	.	.	.	1G/	.	.	.	.	.	.	.	1G/	.	2d\	-men/	.	.	.	.
=111	=111	=111	=111	=111	=111	=111	=111	=111	=111	=111	=111	=111	=111	=111	=111	=111	=111	=111	=111	=111	=111	=111
0.D	0.d	0.a	0.a	0.dd	0.D	-men.	.	.	0.d	-men.	0.a	-men.	0.D	-men.	.	.	1.d	A-	0.a	-men.	0.a	0.dd
.	.	.	.	.	.	.	2.F#Xt/	.	.	.	.	.	.	.	2.F#X/	.	.	.	.	.	.	.
.	.	.	.	.	.	.	4E/	.	.	.	.	.	.	.	4E/	.	.	.	.	.	.	.
=112	=112	=112	=112	=112	=112	=112	=112	=112	=112	=112	=112	=112	=112	=112	=112	=112	=112	=112	=112	=112	=112	=112
.	.	.	.	.	.	.	1.F#X	-men.	.	.	.	.	.	.	1.F#X	-men.	1.d	-men.	.	.	.	.
=-	=-	=-	=-	=-	=-	=-	=-	=-	=-	=-	=-	=-	=-	=-	=-	=-	=-	=-	=-	=-	=-	=-
*-	*-	*-	*-	*-	*-	*-	*-	*-	*-	*-	*-	*-	*-	*-	*-	*-	*-	*-	*-	*-	*-	*-
!!!system-decoration: [(s1,s2)][(s3,s4,s5,s6)][(s7,s8,s9,s10)][(s11,s12,s13,s14)]s15
!!!ENC: Mateusz Solarz
!!!END: 2022-05-31
!!!ENC: Urszula Świątek
!!!END: 2022-07-27
!!!YEC: Copyright 2022 Narodowy Instytut Fryderyka Chopina (https://polishscores.org)
!!!YEM: License CC-BY-4.0 (https://creativecommons.org/licenses/by/4.0)
